;FLAVOR:Marlin
;TIME:2085
;Filament used: 1.60501m
;Layer height: 0.3
;MINX:74.2
;MINY:89.2
;MINZ:0.3
;MAXX:145.8
;MAXY:130.8
;MAXZ:9.3
;Generated with Cura_SteamEngine 4.6.2
M140 S70
M105
M190 S70
M104 S250
M105
M109 S250
M82 ;absolute extrusion mode
G21 ;metric values
G90 ;absolute positioning
M82 ;set extruder to absolute mode
M107 ;start with the fan off
G28 X0 Y0 ;move X/Y to min endstops
G28 Z0 ;move Z to min endstops
G1 Z15.0 F60 ;move the platform down 15mm
G92 E0 ;zero the extruded length
G1 F200 E3 ;extrude 3mm of feed stock
G92 E0 ;zero the extruded length again
G1 F60
M117 Printing...
G5
G92 E0
G92 E0
G1 F1500 E-6.5
;LAYER_COUNT:31
;LAYER:0
M107
M204 S300
M205 X8.18 Y8.18
G0 F2400 X77.222 Y90.834 Z0.3
M205 X3 Y3
;TYPE:SKIRT
G1 F1500 E0
G1 F1200 X77.87 Y90.383 E0.03939
G1 X78.561 Y89.999 E0.07883
G1 X79.286 Y89.687 E0.11821
G1 X80.039 Y89.45 E0.15759
G1 X80.813 Y89.291 E0.19701
G1 X81.598 Y89.21 E0.23638
G1 X138 Y89.2 E3.05029
G1 X138.789 Y89.24 E3.0897
G1 X139.569 Y89.359 E3.12907
G1 X140.334 Y89.557 E3.16849
G1 X141.074 Y89.831 E3.20786
G1 X141.783 Y90.179 E3.24726
G1 X142.454 Y90.597 E3.2867
G1 X143.078 Y91.08 E3.32607
G1 X143.651 Y91.623 E3.36546
G1 X144.166 Y92.222 E3.40487
G1 X144.617 Y92.87 E3.44426
G1 X145.001 Y93.561 E3.4837
G1 X145.313 Y94.286 E3.52307
G1 X145.55 Y95.039 E3.56246
G1 X145.709 Y95.813 E3.60188
G1 X145.79 Y96.598 E3.64125
G1 X145.8 Y123 E4.95845
G1 X145.76 Y123.789 E4.99786
G1 X145.641 Y124.569 E5.03723
G1 X145.443 Y125.334 E5.07665
G1 X145.169 Y126.074 E5.11602
G1 X144.821 Y126.783 E5.15542
G1 X144.403 Y127.454 E5.19487
G1 X143.92 Y128.078 E5.23423
G1 X143.377 Y128.651 E5.27362
G1 X142.778 Y129.166 E5.31303
G1 X142.13 Y129.617 E5.35242
G1 X141.439 Y130.001 E5.39186
G1 X140.714 Y130.313 E5.43123
G1 X139.961 Y130.55 E5.47062
G1 X139.187 Y130.709 E5.51004
G1 X138.402 Y130.79 E5.54941
G1 X82 Y130.8 E8.36332
G1 X81.211 Y130.76 E8.40273
G1 X80.431 Y130.641 E8.4421
G1 X79.666 Y130.443 E8.48152
G1 X78.926 Y130.169 E8.52089
G1 X78.217 Y129.821 E8.56029
G1 X77.546 Y129.403 E8.59973
G1 X76.922 Y128.92 E8.6391
G1 X76.349 Y128.377 E8.67848
G1 X75.834 Y127.778 E8.7179
G1 X75.383 Y127.13 E8.75728
G1 X74.999 Y126.439 E8.79672
G1 X74.687 Y125.714 E8.8361
G1 X74.45 Y124.961 E8.87549
G1 X74.291 Y124.187 E8.91491
G1 X74.21 Y123.402 E8.95428
G1 X74.2 Y97 E10.27148
G1 X74.24 Y96.211 E10.31089
G1 X74.359 Y95.431 E10.35026
G1 X74.557 Y94.666 E10.38968
G1 X74.831 Y93.926 E10.42905
G1 X75.179 Y93.217 E10.46845
G1 X75.597 Y92.546 E10.50789
G1 X76.08 Y91.922 E10.54726
G1 X76.623 Y91.349 E10.58665
G1 X77.222 Y90.834 E10.62606
M205 X8.18 Y8.18
G0 F2400 X77.611 Y91.042
M205 X3 Y3
G1 F1200 X78.253 Y90.619 E10.66441
G1 X78.936 Y90.264 E10.70282
G1 X79.651 Y89.983 E10.74114
G1 X80.393 Y89.777 E10.77956
G1 X81.151 Y89.649 E10.81791
G1 X82 Y89.6 E10.86034
G1 X138 Y89.6 E13.65419
G1 X138.768 Y89.64 E13.69256
G1 X139.528 Y89.759 E13.73094
G1 X140.271 Y89.957 E13.7693
G1 X140.99 Y90.231 E13.80769
G1 X141.676 Y90.578 E13.84604
G1 X142.323 Y90.994 E13.88442
G1 X142.923 Y91.475 E13.92278
G1 X143.47 Y92.016 E13.96117
G1 X143.958 Y92.611 E13.99956
G1 X144.381 Y93.253 E14.03792
G1 X144.736 Y93.936 E14.07632
G1 X145.017 Y94.651 E14.11465
G1 X145.223 Y95.393 E14.15306
G1 X145.351 Y96.151 E14.19142
G1 X145.4 Y97 E14.23384
G1 X145.4 Y123 E15.53099
G1 X145.36 Y123.768 E15.56936
G1 X145.241 Y124.528 E15.60774
G1 X145.043 Y125.271 E15.6461
G1 X144.769 Y125.99 E15.68449
G1 X144.422 Y126.676 E15.72284
G1 X144.006 Y127.323 E15.76121
G1 X143.525 Y127.923 E15.79958
G1 X142.984 Y128.47 E15.83796
G1 X142.389 Y128.958 E15.87635
G1 X141.747 Y129.381 E15.91471
G1 X141.064 Y129.736 E15.95311
G1 X140.349 Y130.017 E15.99144
G1 X139.607 Y130.223 E16.02986
G1 X138.849 Y130.351 E16.06821
G1 X138 Y130.4 E16.11064
G1 X82 Y130.4 E18.90449
G1 X81.232 Y130.36 E18.94286
G1 X80.472 Y130.241 E18.98124
G1 X79.729 Y130.043 E19.0196
G1 X79.01 Y129.769 E19.05799
G1 X78.324 Y129.422 E19.09634
G1 X77.677 Y129.006 E19.13472
G1 X77.077 Y128.525 E19.17308
G1 X76.53 Y127.984 E19.21146
G1 X76.042 Y127.389 E19.24986
G1 X75.619 Y126.747 E19.28821
G1 X75.264 Y126.064 E19.32662
G1 X74.983 Y125.349 E19.36494
G1 X74.777 Y124.607 E19.40336
G1 X74.649 Y123.849 E19.44171
G1 X74.6 Y123 E19.48414
G1 X74.6 Y97 E20.78129
G1 X74.64 Y96.232 E20.81965
G1 X74.759 Y95.472 E20.85803
G1 X74.957 Y94.729 E20.8964
G1 X75.231 Y94.01 E20.93478
G1 X75.578 Y93.324 E20.97314
G1 X75.994 Y92.677 E21.01151
G1 X76.475 Y92.077 E21.04988
G1 X77.016 Y91.53 E21.08826
G1 X77.611 Y91.042 E21.12665
M205 X8.18 Y8.18
G0 F2400 X77.998 Y91.257
M205 X3 Y3
G1 F1200 X78.634 Y90.862 E21.164
G1 X79.308 Y90.538 E21.20131
G1 X80.013 Y90.288 E21.23863
G1 X80.741 Y90.114 E21.27598
G1 X81.483 Y90.019 E21.3133
G1 X82 Y90 E21.33911
G1 X138 Y90 E24.13296
G1 X138.747 Y90.04 E24.17028
G1 X139.485 Y90.159 E24.20757
G1 X140.207 Y90.357 E24.24492
G1 X140.903 Y90.63 E24.28222
G1 X141.566 Y90.977 E24.31956
G1 X142.189 Y91.392 E24.3569
G1 X142.763 Y91.871 E24.3942
G1 X143.284 Y92.408 E24.43153
G1 X143.743 Y92.998 E24.46882
G1 X144.138 Y93.634 E24.50618
G1 X144.462 Y94.308 E24.54348
G1 X144.712 Y95.013 E24.5808
G1 X144.886 Y95.741 E24.61815
G1 X144.981 Y96.483 E24.65547
G1 X145 Y97 E24.68128
G1 X145 Y123 E25.97842
G1 X144.96 Y123.747 E26.01574
G1 X144.841 Y124.485 E26.05304
G1 X144.643 Y125.207 E26.09039
G1 X144.37 Y125.903 E26.12769
G1 X144.023 Y126.566 E26.16502
G1 X143.608 Y127.189 E26.20237
G1 X143.129 Y127.763 E26.23967
G1 X142.592 Y128.284 E26.277
G1 X142.002 Y128.743 E26.31429
G1 X141.366 Y129.138 E26.35164
G1 X140.692 Y129.462 E26.38895
G1 X139.987 Y129.712 E26.42627
G1 X139.259 Y129.886 E26.46361
G1 X138.517 Y129.981 E26.50093
G1 X138 Y130 E26.52674
G1 X82 Y130 E29.32059
G1 X81.253 Y129.96 E29.35792
G1 X80.515 Y129.841 E29.39521
G1 X79.793 Y129.643 E29.43256
G1 X79.097 Y129.37 E29.46986
G1 X78.434 Y129.023 E29.50719
G1 X77.811 Y128.608 E29.54454
G1 X77.237 Y128.129 E29.58184
G1 X76.716 Y127.592 E29.61917
G1 X76.257 Y127.002 E29.65646
G1 X75.862 Y126.366 E29.69381
G1 X75.538 Y125.692 E29.73112
G1 X75.288 Y124.987 E29.76844
G1 X75.114 Y124.259 E29.80578
G1 X75.019 Y123.517 E29.8431
G1 X75 Y123 E29.86891
G1 X75 Y97 E31.16606
G1 X75.04 Y96.253 E31.20338
G1 X75.159 Y95.515 E31.24068
G1 X75.357 Y94.793 E31.27803
G1 X75.63 Y94.097 E31.31533
G1 X75.977 Y93.434 E31.35266
G1 X76.392 Y92.811 E31.39001
G1 X76.871 Y92.237 E31.4273
G1 X77.408 Y91.716 E31.46463
G1 X77.998 Y91.257 E31.50193
M205 X8.18 Y8.18
G0 F2400 X77.799 Y91.909
M205 X3 Y3
G1 F1200 X78.384 Y91.479 E31.53815
G1 X79.013 Y91.115 E31.5744
G1 X79.678 Y90.822 E31.61066
G1 X80.371 Y90.604 E31.6469
G1 X81.083 Y90.464 E31.68311
G1 X82 Y90.4 E31.72897
G1 X138 Y90.4 E34.52282
G1 X138.725 Y90.44 E34.55904
G1 X139.442 Y90.559 E34.5953
G1 X140.141 Y90.757 E34.63155
G1 X140.814 Y91.03 E34.66778
G1 X141.453 Y91.375 E34.70401
G1 X142.05 Y91.789 E34.74026
G1 X142.598 Y92.265 E34.77647
G1 X143.091 Y92.799 E34.81273
G1 X143.521 Y93.384 E34.84895
G1 X143.885 Y94.013 E34.88521
G1 X144.178 Y94.678 E34.92146
G1 X144.396 Y95.371 E34.95771
G1 X144.536 Y96.083 E34.99391
G1 X144.6 Y97 E35.03977
G1 X144.6 Y123 E36.33691
G1 X144.56 Y123.725 E36.37314
G1 X144.441 Y124.442 E36.4094
G1 X144.243 Y125.141 E36.44565
G1 X143.97 Y125.814 E36.48188
G1 X143.625 Y126.453 E36.51811
G1 X143.211 Y127.05 E36.55435
G1 X142.735 Y127.598 E36.59057
G1 X142.201 Y128.091 E36.62683
G1 X141.616 Y128.521 E36.66305
G1 X140.987 Y128.885 E36.69931
G1 X140.322 Y129.178 E36.73556
G1 X139.629 Y129.396 E36.7718
G1 X138.917 Y129.536 E36.80801
G1 X138 Y129.6 E36.85387
G1 X82 Y129.6 E39.64772
G1 X81.275 Y129.56 E39.68394
G1 X80.558 Y129.441 E39.7202
G1 X79.859 Y129.243 E39.75645
G1 X79.186 Y128.97 E39.79268
G1 X78.547 Y128.625 E39.82891
G1 X77.95 Y128.211 E39.86516
G1 X77.402 Y127.735 E39.90137
G1 X76.909 Y127.201 E39.93763
G1 X76.479 Y126.616 E39.97385
G1 X76.115 Y125.987 E40.01011
G1 X75.822 Y125.322 E40.04636
G1 X75.604 Y124.629 E40.08261
G1 X75.464 Y123.917 E40.11881
G1 X75.4 Y123 E40.16467
G1 X75.4 Y97 E41.46182
G1 X75.44 Y96.275 E41.49804
G1 X75.559 Y95.558 E41.5343
G1 X75.757 Y94.859 E41.57055
G1 X76.03 Y94.186 E41.60678
G1 X76.375 Y93.547 E41.64301
G1 X76.789 Y92.95 E41.67926
G1 X77.265 Y92.402 E41.71547
G1 X77.799 Y91.909 E41.75173
M205 X8.18 Y8.18
G0 F2400 X78.189 Y92.109
M205 X3 Y3
G1 F1200 X78.768 Y91.709 E41.78684
G1 X79.389 Y91.377 E41.82197
G1 X80.043 Y91.117 E41.85708
G1 X80.723 Y90.933 E41.89223
G1 X81.419 Y90.827 E41.92735
G1 X82 Y90.8 E41.95637
G1 X138 Y90.8 E44.75022
G1 X138.703 Y90.84 E44.78535
G1 X139.397 Y90.959 E44.82048
G1 X140.072 Y91.157 E44.85557
G1 X140.721 Y91.429 E44.89068
G1 X141.335 Y91.774 E44.92582
G1 X141.906 Y92.185 E44.96092
G1 X142.427 Y92.659 E44.99606
G1 X142.891 Y93.189 E45.0312
G1 X143.291 Y93.768 E45.06631
G1 X143.623 Y94.389 E45.10144
G1 X143.883 Y95.043 E45.13655
G1 X144.067 Y95.723 E45.1717
G1 X144.173 Y96.419 E45.20682
G1 X144.2 Y97 E45.23584
G1 X144.2 Y123 E46.53299
G1 X144.16 Y123.703 E46.56812
G1 X144.041 Y124.397 E46.60324
G1 X143.843 Y125.072 E46.63834
G1 X143.571 Y125.721 E46.67345
G1 X143.226 Y126.335 E46.70858
G1 X142.815 Y126.906 E46.74368
G1 X142.341 Y127.427 E46.77882
G1 X141.811 Y127.891 E46.81397
G1 X141.232 Y128.291 E46.84908
G1 X140.611 Y128.623 E46.88421
G1 X139.957 Y128.883 E46.91932
G1 X139.277 Y129.067 E46.95447
G1 X138.581 Y129.173 E46.98959
G1 X138 Y129.2 E47.01861
G1 X82 Y129.2 E49.81246
G1 X81.297 Y129.16 E49.84759
G1 X80.603 Y129.041 E49.88272
G1 X79.928 Y128.843 E49.91781
G1 X79.279 Y128.571 E49.95292
G1 X78.665 Y128.226 E49.98806
G1 X78.094 Y127.815 E50.02316
G1 X77.573 Y127.341 E50.0583
G1 X77.109 Y126.811 E50.09344
G1 X76.709 Y126.232 E50.12855
G1 X76.377 Y125.611 E50.16368
G1 X76.117 Y124.957 E50.19879
G1 X75.933 Y124.277 E50.23394
G1 X75.827 Y123.581 E50.26906
G1 X75.8 Y123 E50.29808
G1 X75.8 Y97 E51.59522
G1 X75.84 Y96.297 E51.63035
G1 X75.959 Y95.603 E51.66548
G1 X76.157 Y94.928 E51.70058
G1 X76.429 Y94.279 E51.73569
G1 X76.774 Y93.665 E51.77082
G1 X77.185 Y93.094 E51.80592
G1 X77.659 Y92.573 E51.84106
G1 X78.189 Y92.109 E51.87621
M205 X8.18 Y8.18
G0 F2400 X78.578 Y92.317
M205 X3 Y3
G1 F1200 X79.15 Y91.948 E51.91017
G1 X79.762 Y91.649 E51.94415
G1 X80.404 Y91.424 E51.97809
G1 X81.069 Y91.275 E52.01209
G1 X82 Y91.2 E52.05868
G1 X138 Y91.2 E54.85254
G1 X138.68 Y91.24 E54.88652
G1 X139.35 Y91.359 E54.92047
G1 X140.002 Y91.556 E54.95445
G1 X140.626 Y91.828 E54.98841
G1 X141.214 Y92.172 E55.0224
G1 X141.758 Y92.582 E55.05638
G1 X142.249 Y93.053 E55.09033
G1 X142.683 Y93.578 E55.12431
G1 X143.052 Y94.15 E55.15827
G1 X143.351 Y94.762 E55.19225
G1 X143.576 Y95.404 E55.22619
G1 X143.725 Y96.069 E55.26019
G1 X143.8 Y97 E55.30679
G1 X143.8 Y123 E56.60394
G1 X143.76 Y123.68 E56.63792
G1 X143.641 Y124.35 E56.67187
G1 X143.444 Y125.002 E56.70585
G1 X143.172 Y125.626 E56.73981
G1 X142.828 Y126.214 E56.7738
G1 X142.418 Y126.758 E56.80778
G1 X141.947 Y127.249 E56.84173
G1 X141.422 Y127.683 E56.87571
G1 X140.85 Y128.052 E56.90967
G1 X140.238 Y128.351 E56.94365
G1 X139.596 Y128.576 E56.97759
G1 X138.931 Y128.725 E57.01159
G1 X138 Y128.8 E57.05819
G1 X82 Y128.8 E59.85204
G1 X81.32 Y128.76 E59.88603
G1 X80.65 Y128.641 E59.91997
G1 X79.998 Y128.444 E59.95396
G1 X79.374 Y128.172 E59.98792
G1 X78.786 Y127.828 E60.0219
G1 X78.242 Y127.418 E60.05589
G1 X77.751 Y126.947 E60.08983
G1 X77.317 Y126.422 E60.12382
G1 X76.948 Y125.85 E60.15778
G1 X76.649 Y125.238 E60.19176
G1 X76.424 Y124.596 E60.2257
G1 X76.275 Y123.931 E60.2597
G1 X76.2 Y123 E60.3063
G1 X76.2 Y97 E61.60344
G1 X76.24 Y96.32 E61.63742
G1 X76.359 Y95.65 E61.67137
G1 X76.556 Y94.998 E61.70536
G1 X76.828 Y94.374 E61.73932
G1 X77.172 Y93.786 E61.7733
G1 X77.582 Y93.242 E61.80729
G1 X78.053 Y92.751 E61.84123
G1 X78.578 Y92.317 E61.87522
M205 X8.18 Y8.18
G0 F2400 X78.445 Y92.935
M205 X3 Y3
G1 F1200 X78.965 Y92.534 E61.90798
G1 X79.529 Y92.198 E61.94073
G1 X80.131 Y91.934 E61.97352
G1 X80.76 Y91.744 E62.00631
G1 X81.407 Y91.633 E62.03906
G1 X82 Y91.6 E62.06869
G1 X138 Y91.6 E64.86254
G1 X138.656 Y91.64 E64.89533
G1 X139.302 Y91.759 E64.9281
G1 X139.929 Y91.956 E64.96089
G1 X140.527 Y92.228 E64.99366
G1 X141.088 Y92.57 E65.02644
G1 X141.603 Y92.978 E65.05922
G1 X142.065 Y93.445 E65.092
G1 X142.466 Y93.965 E65.12476
G1 X142.802 Y94.529 E65.15751
G1 X143.066 Y95.131 E65.1903
G1 X143.256 Y95.76 E65.22309
G1 X143.367 Y96.407 E65.25584
G1 X143.4 Y97 E65.28547
G1 X143.4 Y123 E66.58261
G1 X143.36 Y123.656 E66.6154
G1 X143.241 Y124.302 E66.64817
G1 X143.044 Y124.929 E66.68096
G1 X142.772 Y125.527 E66.71374
G1 X142.43 Y126.088 E66.74652
G1 X142.022 Y126.603 E66.77929
G1 X141.555 Y127.065 E66.81207
G1 X141.035 Y127.466 E66.84483
G1 X140.471 Y127.802 E66.87758
G1 X139.869 Y128.066 E66.91038
G1 X139.24 Y128.256 E66.94316
G1 X138.593 Y128.367 E66.97591
G1 X138 Y128.4 E67.00554
G1 X82 Y128.4 E69.79939
G1 X81.344 Y128.36 E69.83218
G1 X80.698 Y128.241 E69.86495
G1 X80.071 Y128.044 E69.89774
G1 X79.473 Y127.772 E69.93052
G1 X78.912 Y127.43 E69.96329
G1 X78.397 Y127.022 E69.99607
G1 X77.935 Y126.555 E70.02885
G1 X77.534 Y126.035 E70.06161
G1 X77.198 Y125.471 E70.09436
G1 X76.934 Y124.869 E70.12716
G1 X76.744 Y124.24 E70.15994
G1 X76.633 Y123.593 E70.19269
G1 X76.6 Y123 E70.22232
G1 X76.6 Y97 E71.51946
G1 X76.64 Y96.344 E71.55225
G1 X76.759 Y95.698 E71.58502
G1 X76.956 Y95.071 E71.61781
G1 X77.228 Y94.473 E71.65059
G1 X77.57 Y93.912 E71.68337
G1 X77.978 Y93.397 E71.71615
G1 X78.445 Y92.935 E71.74892
M205 X8.18 Y8.18
G0 F2400 X78.836 Y93.129
M205 X3 Y3
G1 F1200 X79.35 Y92.76 E71.78049
G1 X79.906 Y92.46 E71.81201
G1 X80.495 Y92.232 E71.84352
G1 X81.109 Y92.08 E71.87507
G1 X82 Y92 E71.91971
G1 X138 Y92 E74.71356
G1 X138.631 Y92.04 E74.7451
G1 X139.252 Y92.159 E74.77665
G1 X139.852 Y92.356 E74.80815
G1 X140.424 Y92.627 E74.83973
G1 X140.956 Y92.967 E74.87123
G1 X141.441 Y93.373 E74.90279
G1 X141.871 Y93.836 E74.93431
G1 X142.24 Y94.35 E74.96588
G1 X142.54 Y94.906 E74.9974
G1 X142.768 Y95.495 E75.02891
G1 X142.92 Y96.109 E75.06046
G1 X143 Y97 E75.10509
G1 X143 Y123 E76.40224
G1 X142.96 Y123.631 E76.43378
G1 X142.841 Y124.252 E76.46533
G1 X142.644 Y124.852 E76.49684
G1 X142.373 Y125.424 E76.52841
G1 X142.033 Y125.956 E76.55991
G1 X141.627 Y126.441 E76.59147
G1 X141.164 Y126.871 E76.62299
G1 X140.65 Y127.24 E76.65456
G1 X140.094 Y127.54 E76.68608
G1 X139.505 Y127.768 E76.71759
G1 X138.891 Y127.92 E76.74915
G1 X138 Y128 E76.79378
G1 X82 Y128 E79.58763
G1 X81.369 Y127.96 E79.61917
G1 X80.748 Y127.841 E79.65072
G1 X80.148 Y127.644 E79.68223
G1 X79.576 Y127.373 E79.7138
G1 X79.044 Y127.033 E79.7453
G1 X78.559 Y126.627 E79.77686
G1 X78.129 Y126.164 E79.80838
G1 X77.76 Y125.65 E79.83995
G1 X77.46 Y125.094 E79.87147
G1 X77.232 Y124.505 E79.90298
G1 X77.08 Y123.891 E79.93454
G1 X77 Y123 E79.97917
G1 X77 Y97 E81.27631
G1 X77.04 Y96.369 E81.30786
G1 X77.159 Y95.748 E81.3394
G1 X77.356 Y95.148 E81.37091
G1 X77.627 Y94.576 E81.40249
G1 X77.967 Y94.044 E81.43399
G1 X78.373 Y93.559 E81.46554
G1 X78.836 Y93.129 E81.49707
M205 X8.18 Y8.18
G0 F2400 X79.225 Y93.331
M205 X3 Y3
G1 F1200 X79.732 Y92.998 E81.52733
G1 X80.278 Y92.734 E81.55759
G1 X80.854 Y92.545 E81.58783
G1 X81.45 Y92.433 E81.61808
G1 X82 Y92.4 E81.64557
G1 X138 Y92.4 E84.43942
G1 X138.605 Y92.44 E84.46967
G1 X139.199 Y92.559 E84.4999
G1 X139.773 Y92.755 E84.53016
G1 X140.316 Y93.026 E84.56044
G1 X140.819 Y93.365 E84.5907
G1 X141.272 Y93.767 E84.62091
G1 X141.669 Y94.225 E84.65115
G1 X142.002 Y94.732 E84.68141
G1 X142.266 Y95.278 E84.71167
G1 X142.455 Y95.854 E84.74192
G1 X142.567 Y96.45 E84.77217
G1 X142.6 Y97 E84.79966
G1 X142.6 Y123 E86.09681
G1 X142.56 Y123.605 E86.12705
G1 X142.441 Y124.199 E86.15728
G1 X142.245 Y124.773 E86.18754
G1 X141.974 Y125.316 E86.21782
G1 X141.635 Y125.819 E86.24808
G1 X141.233 Y126.272 E86.27829
G1 X140.775 Y126.669 E86.30853
G1 X140.268 Y127.002 E86.3388
G1 X139.722 Y127.266 E86.36905
G1 X139.146 Y127.455 E86.3993
G1 X138.55 Y127.567 E86.42955
G1 X138 Y127.6 E86.45704
G1 X82 Y127.6 E89.25089
G1 X81.395 Y127.56 E89.28114
G1 X80.801 Y127.441 E89.31136
G1 X80.227 Y127.245 E89.34163
G1 X79.684 Y126.974 E89.3719
G1 X79.181 Y126.635 E89.40216
