;FLAVOR:Marlin
;TIME:1743
;Filament used: 1.47815m
;Layer height: 0.3
;MINX:73.95
;MINY:88.95
;MINZ:0.3
;MAXX:146.05
;MAXY:131.05
;MAXZ:4.5
;Generated with Cura_SteamEngine 4.6.2
M140 S70
M105
M190 S70
M104 S250
M105
M109 S250
M82 ;absolute extrusion mode
G21 ;metric values
G90 ;absolute positioning
M82 ;set extruder to absolute mode
M107 ;start with the fan off
G28 X0 Y0 ;move X/Y to min endstops
G28 Z0 ;move Z to min endstops
G1 Z15.0 F60 ;move the platform down 15mm
G92 E0 ;zero the extruded length
G1 F200 E3 ;extrude 3mm of feed stock
G92 E0 ;zero the extruded length again
G1 F60
M117 Printing...
G5
G92 E0
G92 E0
G1 F1500 E-6.5
;LAYER_COUNT:15
;LAYER:0
M107
M204 S300
M205 X8.18 Y8.18
G0 F2400 X76.972 Y90.584 Z0.3
M205 X3 Y3
;TYPE:SKIRT
G1 F1500 E0
G1 F1200 X77.62 Y90.133 E0.03939
G1 X78.311 Y89.749 E0.07883
G1 X79.036 Y89.437 E0.11821
G1 X79.789 Y89.2 E0.15759
G1 X80.563 Y89.041 E0.19701
G1 X81.348 Y88.96 E0.23638
G1 X138.25 Y88.95 E3.07523
G1 X139.039 Y88.99 E3.11465
G1 X139.819 Y89.109 E3.15401
G1 X140.584 Y89.307 E3.19344
G1 X141.324 Y89.581 E3.23281
G1 X142.033 Y89.929 E3.27221
G1 X142.704 Y90.347 E3.31165
G1 X143.328 Y90.83 E3.35102
G1 X143.901 Y91.373 E3.3904
G1 X144.416 Y91.972 E3.42981
G1 X144.867 Y92.62 E3.4692
G1 X145.251 Y93.311 E3.50864
G1 X145.563 Y94.036 E3.54802
G1 X145.8 Y94.789 E3.5874
G1 X145.959 Y95.563 E3.62682
G1 X146.04 Y96.348 E3.66619
G1 X146.05 Y123.25 E5.00834
G1 X146.01 Y124.039 E5.04776
G1 X145.891 Y124.819 E5.08712
G1 X145.693 Y125.584 E5.12654
G1 X145.419 Y126.324 E5.16591
G1 X145.071 Y127.033 E5.20532
G1 X144.653 Y127.704 E5.24476
G1 X144.17 Y128.328 E5.28412
G1 X143.627 Y128.901 E5.32351
G1 X143.028 Y129.416 E5.36292
G1 X142.38 Y129.867 E5.40231
G1 X141.689 Y130.251 E5.44175
G1 X140.964 Y130.563 E5.48112
G1 X140.211 Y130.8 E5.52051
G1 X139.437 Y130.959 E5.55993
G1 X138.652 Y131.04 E5.5993
G1 X81.75 Y131.05 E8.43815
G1 X80.961 Y131.01 E8.47757
G1 X80.181 Y130.891 E8.51693
G1 X79.416 Y130.693 E8.55636
G1 X78.676 Y130.419 E8.59572
G1 X77.967 Y130.071 E8.63513
G1 X77.296 Y129.653 E8.67457
G1 X76.672 Y129.17 E8.71394
G1 X76.099 Y128.627 E8.75332
G1 X75.584 Y128.028 E8.79273
G1 X75.133 Y127.38 E8.83212
G1 X74.749 Y126.689 E8.87156
G1 X74.437 Y125.964 E8.91094
G1 X74.2 Y125.211 E8.95032
G1 X74.041 Y124.437 E8.98974
G1 X73.96 Y123.652 E9.02911
G1 X73.95 Y96.75 E10.37126
G1 X73.99 Y95.961 E10.41067
G1 X74.109 Y95.181 E10.45004
G1 X74.307 Y94.416 E10.48946
G1 X74.581 Y93.676 E10.52883
G1 X74.929 Y92.967 E10.56823
G1 X75.347 Y92.296 E10.60767
G1 X75.83 Y91.672 E10.64704
G1 X76.373 Y91.099 E10.68643
G1 X76.972 Y90.584 E10.72584
M205 X8.18 Y8.18
G0 F2400 X77.361 Y90.792
M205 X3 Y3
G1 F1200 X78.003 Y90.369 E10.76419
G1 X78.686 Y90.014 E10.8026
G1 X79.401 Y89.733 E10.84092
G1 X80.143 Y89.527 E10.87934
G1 X80.901 Y89.399 E10.9177
G1 X81.75 Y89.35 E10.96012
G1 X138.25 Y89.35 E13.77892
G1 X139.018 Y89.39 E13.81729
G1 X139.778 Y89.509 E13.85567
G1 X140.521 Y89.707 E13.89403
G1 X141.24 Y89.981 E13.93241
G1 X141.926 Y90.328 E13.97077
G1 X142.573 Y90.744 E14.00914
G1 X143.173 Y91.225 E14.04751
G1 X143.72 Y91.766 E14.08589
G1 X144.208 Y92.361 E14.12428
G1 X144.631 Y93.003 E14.16264
G1 X144.986 Y93.686 E14.20104
G1 X145.267 Y94.401 E14.23937
G1 X145.473 Y95.143 E14.27779
G1 X145.601 Y95.901 E14.31614
G1 X145.65 Y96.75 E14.35857
G1 X145.65 Y123.25 E15.68066
G1 X145.61 Y124.018 E15.71903
G1 X145.491 Y124.778 E15.75741
G1 X145.293 Y125.521 E15.79577
G1 X145.019 Y126.24 E15.83416
G1 X144.672 Y126.926 E15.87251
G1 X144.256 Y127.573 E15.91089
G1 X143.775 Y128.173 E15.94925
G1 X143.234 Y128.72 E15.98763
G1 X142.639 Y129.208 E16.02603
G1 X141.997 Y129.631 E16.06438
G1 X141.314 Y129.986 E16.10278
G1 X140.599 Y130.267 E16.14111
G1 X139.857 Y130.473 E16.17953
G1 X139.099 Y130.601 E16.21788
G1 X138.25 Y130.65 E16.26031
G1 X81.75 Y130.65 E19.07911
G1 X80.982 Y130.61 E19.11747
G1 X80.222 Y130.491 E19.15585
G1 X79.479 Y130.293 E19.19422
G1 X78.76 Y130.019 E19.2326
G1 X78.074 Y129.672 E19.27096
G1 X77.427 Y129.256 E19.30933
G1 X76.827 Y128.775 E19.3477
G1 X76.28 Y128.234 E19.38608
G1 X75.792 Y127.639 E19.42447
G1 X75.369 Y126.997 E19.46283
G1 X75.014 Y126.314 E19.50123
G1 X74.733 Y125.599 E19.53956
G1 X74.527 Y124.857 E19.57798
G1 X74.399 Y124.099 E19.61633
G1 X74.35 Y123.25 E19.65876
G1 X74.35 Y96.75 E20.98085
G1 X74.39 Y95.982 E21.01922
G1 X74.509 Y95.222 E21.05759
G1 X74.707 Y94.479 E21.09596
G1 X74.981 Y93.76 E21.13434
G1 X75.328 Y93.074 E21.1727
G1 X75.744 Y92.427 E21.21107
G1 X76.225 Y91.827 E21.24944
G1 X76.766 Y91.28 E21.28782
G1 X77.361 Y90.792 E21.32621
M205 X8.18 Y8.18
G0 F2400 X77.748 Y91.007
M205 X3 Y3
G1 F1200 X78.384 Y90.612 E21.36356
G1 X79.058 Y90.288 E21.40087
G1 X79.763 Y90.038 E21.43819
G1 X80.491 Y89.864 E21.47554
G1 X81.233 Y89.769 E21.51286
G1 X81.75 Y89.75 E21.53867
G1 X138.25 Y89.75 E24.35746
G1 X138.997 Y89.79 E24.39479
G1 X139.735 Y89.909 E24.43208
G1 X140.457 Y90.107 E24.46943
G1 X141.153 Y90.38 E24.50673
G1 X141.816 Y90.727 E24.54406
G1 X142.439 Y91.142 E24.58141
G1 X143.013 Y91.621 E24.61871
G1 X143.534 Y92.158 E24.65604
G1 X143.993 Y92.748 E24.69333
G1 X144.388 Y93.384 E24.73068
G1 X144.712 Y94.058 E24.76799
G1 X144.962 Y94.763 E24.80531
G1 X145.136 Y95.491 E24.84265
G1 X145.231 Y96.233 E24.87997
G1 X145.25 Y96.75 E24.90578
G1 X145.25 Y123.25 E26.22787
G1 X145.21 Y123.997 E26.2652
G1 X145.091 Y124.735 E26.30249
G1 X144.893 Y125.457 E26.33984
G1 X144.62 Y126.153 E26.37714
G1 X144.273 Y126.816 E26.41447
G1 X143.858 Y127.439 E26.45182
G1 X143.379 Y128.013 E26.48912
G1 X142.842 Y128.534 E26.52645
G1 X142.252 Y128.993 E26.56374
G1 X141.616 Y129.388 E26.60109
G1 X140.942 Y129.712 E26.6384
G1 X140.237 Y129.962 E26.67572
G1 X139.509 Y130.136 E26.71306
G1 X138.767 Y130.231 E26.75038
G1 X138.25 Y130.25 E26.77619
G1 X81.75 Y130.25 E29.59499
G1 X81.003 Y130.21 E29.63231
G1 X80.265 Y130.091 E29.66961
G1 X79.543 Y129.893 E29.70696
G1 X78.847 Y129.62 E29.74426
G1 X78.184 Y129.273 E29.78159
G1 X77.561 Y128.858 E29.81894
G1 X76.987 Y128.379 E29.85623
G1 X76.466 Y127.842 E29.89356
G1 X76.007 Y127.252 E29.93086
G1 X75.612 Y126.616 E29.96821
G1 X75.288 Y125.942 E30.00552
G1 X75.038 Y125.237 E30.04284
G1 X74.864 Y124.509 E30.08018
G1 X74.769 Y123.767 E30.1175
G1 X74.75 Y123.25 E30.14331
G1 X74.75 Y96.75 E31.4654
G1 X74.79 Y96.003 E31.50272
G1 X74.909 Y95.265 E31.54002
G1 X75.107 Y94.543 E31.57737
G1 X75.38 Y93.847 E31.61467
G1 X75.727 Y93.184 E31.652
G1 X76.142 Y92.561 E31.68935
G1 X76.621 Y91.987 E31.72665
G1 X77.158 Y91.466 E31.76397
G1 X77.748 Y91.007 E31.80127
M205 X8.18 Y8.18
G0 F2400 X77.549 Y91.659
M205 X3 Y3
G1 F1200 X78.134 Y91.229 E31.83749
G1 X78.763 Y90.865 E31.87375
G1 X79.428 Y90.572 E31.91
G1 X80.121 Y90.354 E31.94624
G1 X80.833 Y90.214 E31.98245
G1 X81.75 Y90.15 E32.02831
G1 X138.25 Y90.15 E34.8471
G1 X138.975 Y90.19 E34.88333
G1 X139.692 Y90.309 E34.91959
G1 X140.391 Y90.507 E34.95583
G1 X141.064 Y90.78 E34.99207
G1 X141.703 Y91.125 E35.0283
G1 X142.3 Y91.539 E35.06454
G1 X142.848 Y92.015 E35.10076
G1 X143.341 Y92.549 E35.13702
G1 X143.771 Y93.134 E35.17324
G1 X144.135 Y93.763 E35.20949
G1 X144.428 Y94.428 E35.24575
G1 X144.646 Y95.121 E35.28199
G1 X144.786 Y95.833 E35.3182
G1 X144.85 Y96.75 E35.36406
G1 X144.85 Y123.25 E36.68615
G1 X144.81 Y123.975 E36.72237
G1 X144.691 Y124.692 E36.75863
G1 X144.493 Y125.391 E36.79488
G1 X144.22 Y126.064 E36.83111
G1 X143.875 Y126.703 E36.86734
G1 X143.461 Y127.3 E36.90359
G1 X142.985 Y127.848 E36.9398
G1 X142.451 Y128.341 E36.97606
G1 X141.866 Y128.771 E37.01228
G1 X141.237 Y129.135 E37.04854
G1 X140.572 Y129.428 E37.08479
G1 X139.879 Y129.646 E37.12104
G1 X139.167 Y129.786 E37.15724
G1 X138.25 Y129.85 E37.2031
G1 X81.75 Y129.85 E40.02189
G1 X81.025 Y129.81 E40.05812
G1 X80.308 Y129.691 E40.09438
G1 X79.609 Y129.493 E40.13063
G1 X78.936 Y129.22 E40.16686
G1 X78.297 Y128.875 E40.20309
G1 X77.7 Y128.461 E40.23933
G1 X77.152 Y127.985 E40.27555
G1 X76.659 Y127.451 E40.31181
G1 X76.229 Y126.866 E40.34803
G1 X75.865 Y126.237 E40.38429
G1 X75.572 Y125.572 E40.42054
G1 X75.354 Y124.879 E40.45678
G1 X75.214 Y124.167 E40.49299
G1 X75.15 Y123.25 E40.53885
G1 X75.15 Y96.75 E41.86094
G1 X75.19 Y96.025 E41.89716
G1 X75.309 Y95.308 E41.93342
G1 X75.507 Y94.609 E41.96967
G1 X75.78 Y93.936 E42.0059
G1 X76.125 Y93.297 E42.04213
G1 X76.539 Y92.7 E42.07838
G1 X77.015 Y92.152 E42.11459
G1 X77.549 Y91.659 E42.15085
M205 X8.18 Y8.18
G0 F2400 X77.939 Y91.859
M205 X3 Y3
G1 F1200 X78.518 Y91.459 E42.18596
G1 X79.139 Y91.127 E42.22109
G1 X79.793 Y90.867 E42.2562
G1 X80.473 Y90.683 E42.29135
G1 X81.169 Y90.577 E42.32647
G1 X81.75 Y90.55 E42.35549
G1 X138.25 Y90.55 E45.17429
G1 X138.953 Y90.59 E45.20942
G1 X139.647 Y90.709 E45.24454
G1 X140.322 Y90.907 E45.27964
G1 X140.971 Y91.179 E45.31475
G1 X141.585 Y91.524 E45.34988
G1 X142.156 Y91.935 E45.38498
G1 X142.677 Y92.409 E45.42012
G1 X143.141 Y92.939 E45.45527
G1 X143.541 Y93.518 E45.49038
G1 X143.873 Y94.139 E45.52551
G1 X144.133 Y94.793 E45.56062
G1 X144.317 Y95.473 E45.59577
G1 X144.423 Y96.169 E45.63089
G1 X144.45 Y96.75 E45.65991
G1 X144.45 Y123.25 E46.982
G1 X144.41 Y123.953 E47.01713
G1 X144.291 Y124.647 E47.05226
G1 X144.093 Y125.322 E47.08735
G1 X143.821 Y125.971 E47.12246
G1 X143.476 Y126.585 E47.1576
G1 X143.065 Y127.156 E47.1927
G1 X142.591 Y127.677 E47.22784
G1 X142.061 Y128.141 E47.26298
G1 X141.482 Y128.541 E47.29809
G1 X140.861 Y128.873 E47.33322
G1 X140.207 Y129.133 E47.36833
G1 X139.527 Y129.317 E47.40348
G1 X138.831 Y129.423 E47.4386
G1 X138.25 Y129.45 E47.46762
G1 X81.75 Y129.45 E50.28642
G1 X81.047 Y129.41 E50.32154
G1 X80.353 Y129.291 E50.35667
G1 X79.678 Y129.093 E50.39177
G1 X79.029 Y128.821 E50.42688
G1 X78.415 Y128.476 E50.46201
G1 X77.844 Y128.065 E50.49711
G1 X77.323 Y127.591 E50.53225
G1 X76.859 Y127.061 E50.5674
G1 X76.459 Y126.482 E50.60251
G1 X76.127 Y125.861 E50.63764
G1 X75.867 Y125.207 E50.67275
G1 X75.683 Y124.527 E50.70789
G1 X75.577 Y123.831 E50.74302
G1 X75.55 Y123.25 E50.77204
G1 X75.55 Y96.75 E52.09413
G1 X75.59 Y96.047 E52.12926
G1 X75.709 Y95.353 E52.16439
G1 X75.907 Y94.678 E52.19948
G1 X76.179 Y94.029 E52.23459
G1 X76.524 Y93.415 E52.26972
G1 X76.935 Y92.844 E52.30482
G1 X77.409 Y92.323 E52.33996
G1 X77.939 Y91.859 E52.37511
M205 X8.18 Y8.18
G0 F2400 X78.328 Y92.067
M205 X3 Y3
G1 F1200 X78.9 Y91.698 E52.40907
G1 X79.512 Y91.399 E52.44305
G1 X80.154 Y91.174 E52.47699
G1 X80.819 Y91.025 E52.51099
G1 X81.75 Y90.95 E52.55759
G1 X138.25 Y90.95 E55.37638
G1 X138.93 Y90.99 E55.41037
G1 X139.6 Y91.109 E55.44432
G1 X140.252 Y91.306 E55.4783
G1 X140.876 Y91.578 E55.51226
G1 X141.464 Y91.922 E55.54625
G1 X142.008 Y92.332 E55.58023
G1 X142.499 Y92.803 E55.61418
G1 X142.933 Y93.328 E55.64816
G1 X143.302 Y93.9 E55.68212
G1 X143.601 Y94.512 E55.7161
G1 X143.826 Y95.154 E55.75004
G1 X143.975 Y95.819 E55.78404
G1 X144.05 Y96.75 E55.83064
G1 X144.05 Y123.25 E57.15273
G1 X144.01 Y123.93 E57.18671
G1 X143.891 Y124.6 E57.22066
G1 X143.694 Y125.252 E57.25464
G1 X143.422 Y125.876 E57.2886
G1 X143.078 Y126.464 E57.32259
G1 X142.668 Y127.008 E57.35658
G1 X142.197 Y127.499 E57.39052
G1 X141.672 Y127.933 E57.4245
G1 X141.1 Y128.302 E57.45846
G1 X140.488 Y128.601 E57.49244
G1 X139.846 Y128.826 E57.52638
G1 X139.181 Y128.975 E57.56038
G1 X138.25 Y129.05 E57.60698
G1 X81.75 Y129.05 E60.42578
G1 X81.07 Y129.01 E60.45976
G1 X80.4 Y128.891 E60.49371
G1 X79.748 Y128.694 E60.52769
G1 X79.124 Y128.422 E60.56165
G1 X78.536 Y128.078 E60.59564
G1 X77.992 Y127.668 E60.62963
G1 X77.501 Y127.197 E60.66357
G1 X77.067 Y126.672 E60.69755
G1 X76.698 Y126.1 E60.73151
G1 X76.399 Y125.488 E60.7655
G1 X76.174 Y124.846 E60.79944
G1 X76.025 Y124.181 E60.83343
G1 X75.95 Y123.25 E60.88003
G1 X75.95 Y96.75 E62.20212
G1 X75.99 Y96.07 E62.23611
G1 X76.109 Y95.4 E62.27006
G1 X76.306 Y94.748 E62.30404
G1 X76.578 Y94.124 E62.338
G1 X76.922 Y93.536 E62.37199
G1 X77.332 Y92.992 E62.40597
G1 X77.803 Y92.501 E62.43991
G1 X78.328 Y92.067 E62.4739
M205 X8.18 Y8.18
G0 F2400 X78.195 Y92.685
M205 X3 Y3
G1 F1200 X78.715 Y92.284 E62.50666
G1 X79.279 Y91.948 E62.53941
G1 X79.881 Y91.684 E62.57221
G1 X80.51 Y91.494 E62.60499
G1 X81.157 Y91.383 E62.63774
G1 X81.75 Y91.35 E62.66737
G1 X138.25 Y91.35 E65.48617
G1 X138.906 Y91.39 E65.51895
G1 X139.552 Y91.509 E65.55173
G1 X140.179 Y91.706 E65.58451
G1 X140.777 Y91.978 E65.61729
G1 X141.338 Y92.32 E65.65007
G1 X141.853 Y92.728 E65.68285
G1 X142.315 Y93.195 E65.71562
G1 X142.716 Y93.715 E65.74838
G1 X143.052 Y94.279 E65.78114
G1 X143.316 Y94.881 E65.81393
G1 X143.506 Y95.51 E65.84671
G1 X143.617 Y96.157 E65.87946
G1 X143.65 Y96.75 E65.90909
G1 X143.65 Y123.25 E67.23118
G1 X143.61 Y123.906 E67.26397
G1 X143.491 Y124.552 E67.29674
G1 X143.294 Y125.179 E67.32953
G1 X143.022 Y125.777 E67.36231
G1 X142.68 Y126.338 E67.39509
G1 X142.272 Y126.853 E67.42787
G1 X141.805 Y127.315 E67.46064
G1 X141.285 Y127.716 E67.4934
G1 X140.721 Y128.052 E67.52615
G1 X140.119 Y128.316 E67.55895
G1 X139.49 Y128.506 E67.59173
G1 X138.843 Y128.617 E67.62448
G1 X138.25 Y128.65 E67.65411
G1 X81.75 Y128.65 E70.47291
G1 X81.094 Y128.61 E70.5057
G1 X80.448 Y128.491 E70.53847
G1 X79.821 Y128.294 E70.57126
G1 X79.223 Y128.022 E70.60403
G1 X78.662 Y127.68 E70.63681
G1 X78.147 Y127.272 E70.66959
G1 X77.685 Y126.805 E70.70237
G1 X77.284 Y126.285 E70.73513
G1 X76.948 Y125.721 E70.76788
G1 X76.684 Y125.119 E70.80067
G1 X76.494 Y124.49 E70.83346
G1 X76.383 Y123.843 E70.86621
G1 X76.35 Y123.25 E70.89584
G1 X76.35 Y96.75 E72.21793
G1 X76.39 Y96.094 E72.25072
G1 X76.509 Y95.448 E72.28349
G1 X76.706 Y94.821 E72.31628
G1 X76.978 Y94.223 E72.34905
G1 X77.32 Y93.662 E72.38183
G1 X77.728 Y93.147 E72.41461
G1 X78.195 Y92.685 E72.44738
M205 X8.18 Y8.18
G0 F2400 X78.586 Y92.879
M205 X3 Y3
G1 F1200 X79.1 Y92.51 E72.47895
G1 X79.656 Y92.21 E72.51047
G1 X80.245 Y91.982 E72.54198
G1 X80.859 Y91.83 E72.57354
G1 X81.75 Y91.75 E72.61817
G1 X138.25 Y91.75 E75.43696
G1 X138.881 Y91.79 E75.46851
G1 X139.502 Y91.909 E75.50005
G1 X140.102 Y92.106 E75.53156
G1 X140.674 Y92.377 E75.56314
G1 X141.206 Y92.717 E75.59464
G1 X141.691 Y93.123 E75.62619
G1 X142.121 Y93.586 E75.65772
G1 X142.49 Y94.1 E75.68929
G1 X142.79 Y94.656 E75.7208
G1 X143.018 Y95.245 E75.75231
G1 X143.17 Y95.859 E75.78387
G1 X143.25 Y96.75 E75.8285
G1 X143.25 Y123.25 E77.15059
G1 X143.21 Y123.881 E77.18214
G1 X143.091 Y124.502 E77.21368
G1 X142.894 Y125.102 E77.24519
G1 X142.623 Y125.674 E77.27677
G1 X142.283 Y126.206 E77.30827
G1 X141.877 Y126.691 E77.33982
G1 X141.414 Y127.121 E77.37135
G1 X140.9 Y127.49 E77.40291
G1 X140.344 Y127.79 E77.43443
G1 X139.755 Y128.018 E77.46594
G1 X139.141 Y128.17 E77.4975
G1 X138.25 Y128.25 E77.54213
G1 X81.75 Y128.25 E80.36093
G1 X81.119 Y128.21 E80.39247
G1 X80.498 Y128.091 E80.42402
G1 X79.898 Y127.894 E80.45552
G1 X79.326 Y127.623 E80.4871
G1 X78.794 Y127.283 E80.5186
G1 X78.309 Y126.877 E80.55016
G1 X77.879 Y126.414 E80.58168
G1 X77.51 Y125.9 E80.61325
G1 X77.21 Y125.344 E80.64477
G1 X76.982 Y124.755 E80.67628
G1 X76.83 Y124.141 E80.70783
G1 X76.75 Y123.25 E80.75247
G1 X76.75 Y96.75 E82.07456
G1 X76.79 Y96.119 E82.1061
G1 X76.909 Y95.498 E82.13765
G1 X77.106 Y94.898 E82.16915
G1 X77.377 Y94.326 E82.20073
G1 X77.717 Y93.794 E82.23223
G1 X78.123 Y93.309 E82.26378
G1 X78.586 Y92.879 E82.29531
M205 X8.18 Y8.18
G0 F2400 X78.975 Y93.081
M205 X3 Y3
G1 F1200 X79.482 Y92.748 E82.32557
G1 X80.028 Y92.484 E82.35583
G1 X80.604 Y92.295 E82.38607
G1 X81.2 Y92.183 E82.41633
G1 X81.75 Y92.15 E82.44382
G1 X138.25 Y92.15 E85.26261
G1 X138.855 Y92.19 E85.29286
G1 X139.449 Y92.309 E85.32309
G1 X140.023 Y92.505 E85.35335
G1 X140.566 Y92.776 E85.38362
G1 X141.069 Y93.115 E85.41389
G1 X141.522 Y93.517 E85.4441
G1 X141.919 Y93.975 E85.47434
G1 X142.252 Y94.482 E85.5046
G1 X142.516 Y95.028 E85.53486
G1 X142.705 Y95.604 E85.5651
G1 X142.817 Y96.2 E85.59536
G1 X142.85 Y96.75 E85.62285
G1 X142.85 Y123.25 E86.94494
G1 X142.81 Y123.855 E86.97519
G1 X142.691 Y124.449 E87.00541
G1 X142.495 Y125.023 E87.03567
G1 X142.224 Y125.566 E87.06595
G1 X141.885 Y126.069 E87.09621
G1 X141.483 Y126.522 E87.12643
G1 X141.025 Y126.919 E87.15667
G1 X140.518 Y127.252 E87.18693
