;FLAVOR:Marlin
;TIME:2323
;Filament used: 1.95949m
;Layer height: 0.3
;MINX:73.95
;MINY:92.383
;MINZ:0.3
;MAXX:146.05
;MAXY:134.483
;MAXZ:10.5
;Generated with Cura_SteamEngine 4.6.2
M140 S70
M105
M190 S70
M104 S250
M105
M109 S250
M82 ;absolute extrusion mode
G21 ;metric values
G90 ;absolute positioning
M82 ;set extruder to absolute mode
M107 ;start with the fan off
G28 X0 Y0 ;move X/Y to min endstops
G28 Z0 ;move Z to min endstops
G1 Z15.0 F60 ;move the platform down 15mm
G92 E0 ;zero the extruded length
G1 F200 E3 ;extrude 3mm of feed stock
G92 E0 ;zero the extruded length again
G1 F60
M117 Printing...
G5
G92 E0
G92 E0
G1 F1500 E-6.5
;LAYER_COUNT:35
;LAYER:0
M107
M204 S300
M205 X8.18 Y8.18
G0 F2400 X76.972 Y94.017 Z0.3
M205 X3 Y3
;TYPE:SKIRT
G1 F1500 E0
G1 F1200 X77.62 Y93.566 E0.03939
G1 X78.311 Y93.182 E0.07883
G1 X79.036 Y92.87 E0.11821
G1 X79.789 Y92.633 E0.15759
G1 X80.563 Y92.474 E0.19701
G1 X81.348 Y92.393 E0.23638
G1 X138.25 Y92.383 E3.07523
G1 X139.039 Y92.423 E3.11465
G1 X139.819 Y92.542 E3.15401
G1 X140.584 Y92.74 E3.19344
G1 X141.324 Y93.014 E3.23281
G1 X142.033 Y93.362 E3.27221
G1 X142.704 Y93.78 E3.31165
G1 X143.328 Y94.263 E3.35102
G1 X143.901 Y94.806 E3.3904
G1 X144.416 Y95.405 E3.42981
G1 X144.867 Y96.053 E3.4692
G1 X145.251 Y96.744 E3.50864
G1 X145.563 Y97.469 E3.54802
G1 X145.8 Y98.222 E3.5874
G1 X145.959 Y98.996 E3.62682
G1 X146.04 Y99.781 E3.66619
G1 X146.05 Y126.683 E5.00834
G1 X146.01 Y127.472 E5.04776
G1 X145.891 Y128.252 E5.08712
G1 X145.693 Y129.017 E5.12654
G1 X145.419 Y129.757 E5.16591
G1 X145.071 Y130.466 E5.20532
G1 X144.653 Y131.137 E5.24476
G1 X144.17 Y131.761 E5.28412
G1 X143.627 Y132.334 E5.32351
G1 X143.028 Y132.849 E5.36292
G1 X142.38 Y133.3 E5.40231
G1 X141.689 Y133.684 E5.44175
G1 X140.964 Y133.996 E5.48112
G1 X140.211 Y134.233 E5.52051
G1 X139.437 Y134.392 E5.55993
G1 X138.652 Y134.473 E5.5993
G1 X81.75 Y134.483 E8.43815
G1 X80.961 Y134.443 E8.47757
G1 X80.181 Y134.324 E8.51693
G1 X79.416 Y134.126 E8.55636
G1 X78.676 Y133.852 E8.59572
G1 X77.967 Y133.504 E8.63513
G1 X77.296 Y133.086 E8.67457
G1 X76.672 Y132.603 E8.71394
G1 X76.099 Y132.06 E8.75332
G1 X75.584 Y131.461 E8.79273
G1 X75.133 Y130.813 E8.83212
G1 X74.749 Y130.122 E8.87156
G1 X74.437 Y129.397 E8.91094
G1 X74.2 Y128.644 E8.95032
G1 X74.041 Y127.87 E8.98974
G1 X73.96 Y127.085 E9.02911
G1 X73.95 Y100.183 E10.37126
G1 X73.99 Y99.394 E10.41067
G1 X74.109 Y98.614 E10.45004
G1 X74.307 Y97.849 E10.48946
G1 X74.581 Y97.109 E10.52883
G1 X74.929 Y96.4 E10.56823
G1 X75.347 Y95.729 E10.60767
G1 X75.83 Y95.105 E10.64704
G1 X76.373 Y94.532 E10.68643
G1 X76.972 Y94.017 E10.72584
M205 X8.18 Y8.18
G0 F2400 X77.361 Y94.225
M205 X3 Y3
G1 F1200 X78.003 Y93.802 E10.76419
G1 X78.686 Y93.447 E10.8026
G1 X79.401 Y93.166 E10.84092
G1 X80.143 Y92.96 E10.87934
G1 X80.901 Y92.832 E10.9177
G1 X81.75 Y92.783 E10.96012
G1 X138.25 Y92.783 E13.77892
G1 X139.018 Y92.823 E13.81729
G1 X139.778 Y92.942 E13.85567
G1 X140.521 Y93.14 E13.89403
G1 X141.24 Y93.414 E13.93241
G1 X141.926 Y93.761 E13.97077
G1 X142.573 Y94.177 E14.00914
G1 X143.173 Y94.658 E14.04751
G1 X143.72 Y95.199 E14.08589
G1 X144.208 Y95.794 E14.12428
G1 X144.631 Y96.436 E14.16264
G1 X144.986 Y97.119 E14.20104
G1 X145.267 Y97.834 E14.23937
G1 X145.473 Y98.576 E14.27779
G1 X145.601 Y99.334 E14.31614
G1 X145.65 Y100.183 E14.35857
G1 X145.65 Y126.683 E15.68066
G1 X145.61 Y127.451 E15.71903
G1 X145.491 Y128.211 E15.75741
G1 X145.293 Y128.954 E15.79577
G1 X145.019 Y129.673 E15.83416
G1 X144.672 Y130.359 E15.87251
G1 X144.256 Y131.006 E15.91089
G1 X143.775 Y131.606 E15.94925
G1 X143.234 Y132.153 E15.98763
G1 X142.639 Y132.641 E16.02603
G1 X141.997 Y133.064 E16.06438
G1 X141.314 Y133.419 E16.10278
G1 X140.599 Y133.7 E16.14111
G1 X139.857 Y133.906 E16.17953
G1 X139.099 Y134.034 E16.21788
G1 X138.25 Y134.083 E16.26031
G1 X81.75 Y134.083 E19.07911
G1 X80.982 Y134.043 E19.11747
G1 X80.222 Y133.924 E19.15585
G1 X79.479 Y133.726 E19.19422
G1 X78.76 Y133.452 E19.2326
G1 X78.074 Y133.105 E19.27096
G1 X77.427 Y132.689 E19.30933
G1 X76.827 Y132.208 E19.3477
G1 X76.28 Y131.667 E19.38608
G1 X75.792 Y131.072 E19.42447
G1 X75.369 Y130.43 E19.46283
G1 X75.014 Y129.747 E19.50123
G1 X74.733 Y129.032 E19.53956
G1 X74.527 Y128.29 E19.57798
G1 X74.399 Y127.532 E19.61633
G1 X74.35 Y126.683 E19.65876
G1 X74.35 Y100.183 E20.98085
G1 X74.39 Y99.415 E21.01922
G1 X74.509 Y98.655 E21.05759
G1 X74.707 Y97.912 E21.09596
G1 X74.981 Y97.193 E21.13434
G1 X75.328 Y96.507 E21.1727
G1 X75.744 Y95.86 E21.21107
G1 X76.225 Y95.26 E21.24944
G1 X76.766 Y94.713 E21.28782
G1 X77.361 Y94.225 E21.32621
M205 X8.18 Y8.18
G0 F2400 X77.748 Y94.44
M205 X3 Y3
G1 F1200 X78.384 Y94.045 E21.36356
G1 X79.058 Y93.721 E21.40087
G1 X79.763 Y93.471 E21.43819
G1 X80.491 Y93.297 E21.47554
G1 X81.233 Y93.202 E21.51286
G1 X81.75 Y93.183 E21.53867
G1 X138.25 Y93.183 E24.35746
G1 X138.997 Y93.223 E24.39479
G1 X139.735 Y93.342 E24.43208
G1 X140.457 Y93.54 E24.46943
G1 X141.153 Y93.813 E24.50673
G1 X141.816 Y94.16 E24.54406
G1 X142.439 Y94.575 E24.58141
G1 X143.013 Y95.054 E24.61871
G1 X143.534 Y95.591 E24.65604
G1 X143.993 Y96.181 E24.69333
G1 X144.388 Y96.817 E24.73068
G1 X144.712 Y97.491 E24.76799
G1 X144.962 Y98.196 E24.80531
G1 X145.136 Y98.924 E24.84265
G1 X145.231 Y99.666 E24.87997
G1 X145.25 Y100.183 E24.90578
G1 X145.25 Y126.683 E26.22787
G1 X145.21 Y127.43 E26.2652
G1 X145.091 Y128.168 E26.30249
G1 X144.893 Y128.89 E26.33984
G1 X144.62 Y129.586 E26.37714
G1 X144.273 Y130.249 E26.41447
G1 X143.858 Y130.872 E26.45182
G1 X143.379 Y131.446 E26.48912
G1 X142.842 Y131.967 E26.52645
G1 X142.252 Y132.426 E26.56374
G1 X141.616 Y132.821 E26.60109
G1 X140.942 Y133.145 E26.6384
G1 X140.237 Y133.395 E26.67572
G1 X139.509 Y133.569 E26.71306
G1 X138.767 Y133.664 E26.75038
G1 X138.25 Y133.683 E26.77619
G1 X81.75 Y133.683 E29.59499
G1 X81.003 Y133.643 E29.63231
G1 X80.265 Y133.524 E29.66961
G1 X79.543 Y133.326 E29.70696
G1 X78.847 Y133.053 E29.74426
G1 X78.184 Y132.706 E29.78159
G1 X77.561 Y132.291 E29.81894
G1 X76.987 Y131.812 E29.85623
G1 X76.466 Y131.275 E29.89356
G1 X76.007 Y130.685 E29.93086
G1 X75.612 Y130.049 E29.96821
G1 X75.288 Y129.375 E30.00552
G1 X75.038 Y128.67 E30.04284
G1 X74.864 Y127.942 E30.08018
G1 X74.769 Y127.2 E30.1175
G1 X74.75 Y126.683 E30.14331
G1 X74.75 Y100.183 E31.4654
G1 X74.79 Y99.436 E31.50272
G1 X74.909 Y98.698 E31.54002
G1 X75.107 Y97.976 E31.57737
G1 X75.38 Y97.28 E31.61467
G1 X75.727 Y96.617 E31.652
G1 X76.142 Y95.994 E31.68935
G1 X76.621 Y95.42 E31.72665
G1 X77.158 Y94.899 E31.76397
G1 X77.748 Y94.44 E31.80127
M205 X8.18 Y8.18
G0 F2400 X77.549 Y95.092
M205 X3 Y3
G1 F1200 X78.134 Y94.662 E31.83749
G1 X78.763 Y94.298 E31.87375
G1 X79.428 Y94.005 E31.91
G1 X80.121 Y93.787 E31.94624
G1 X80.833 Y93.647 E31.98245
G1 X81.75 Y93.583 E32.02831
G1 X138.25 Y93.583 E34.8471
G1 X138.975 Y93.623 E34.88333
G1 X139.692 Y93.742 E34.91959
G1 X140.391 Y93.94 E34.95583
G1 X141.064 Y94.213 E34.99207
G1 X141.703 Y94.558 E35.0283
G1 X142.3 Y94.972 E35.06454
G1 X142.848 Y95.448 E35.10076
G1 X143.341 Y95.982 E35.13702
G1 X143.771 Y96.567 E35.17324
G1 X144.135 Y97.196 E35.20949
G1 X144.428 Y97.861 E35.24575
G1 X144.646 Y98.554 E35.28199
G1 X144.786 Y99.266 E35.3182
G1 X144.85 Y100.183 E35.36406
G1 X144.85 Y126.683 E36.68615
G1 X144.81 Y127.408 E36.72237
G1 X144.691 Y128.125 E36.75863
G1 X144.493 Y128.824 E36.79488
G1 X144.22 Y129.497 E36.83111
G1 X143.875 Y130.136 E36.86734
G1 X143.461 Y130.733 E36.90359
G1 X142.985 Y131.281 E36.9398
G1 X142.451 Y131.774 E36.97606
G1 X141.866 Y132.204 E37.01228
G1 X141.237 Y132.568 E37.04854
G1 X140.572 Y132.861 E37.08479
G1 X139.879 Y133.079 E37.12104
G1 X139.167 Y133.219 E37.15724
G1 X138.25 Y133.283 E37.2031
G1 X81.75 Y133.283 E40.02189
G1 X81.025 Y133.243 E40.05812
G1 X80.308 Y133.124 E40.09438
G1 X79.609 Y132.926 E40.13063
G1 X78.936 Y132.653 E40.16686
G1 X78.297 Y132.308 E40.20309
G1 X77.7 Y131.894 E40.23933
G1 X77.152 Y131.418 E40.27555
G1 X76.659 Y130.884 E40.31181
G1 X76.229 Y130.299 E40.34803
G1 X75.865 Y129.67 E40.38429
G1 X75.572 Y129.005 E40.42054
G1 X75.354 Y128.312 E40.45678
G1 X75.214 Y127.6 E40.49299
G1 X75.15 Y126.683 E40.53885
G1 X75.15 Y100.183 E41.86094
G1 X75.19 Y99.458 E41.89716
G1 X75.309 Y98.741 E41.93342
G1 X75.507 Y98.042 E41.96967
G1 X75.78 Y97.369 E42.0059
G1 X76.125 Y96.73 E42.04213
G1 X76.539 Y96.133 E42.07838
G1 X77.015 Y95.585 E42.11459
G1 X77.549 Y95.092 E42.15085
M205 X8.18 Y8.18
G0 F2400 X77.939 Y95.292
M205 X3 Y3
G1 F1200 X78.518 Y94.892 E42.18596
G1 X79.139 Y94.56 E42.22109
G1 X79.793 Y94.3 E42.2562
G1 X80.473 Y94.116 E42.29135
G1 X81.169 Y94.01 E42.32647
G1 X81.75 Y93.983 E42.35549
G1 X138.25 Y93.983 E45.17429
G1 X138.953 Y94.023 E45.20942
G1 X139.647 Y94.142 E45.24454
G1 X140.322 Y94.34 E45.27964
G1 X140.971 Y94.612 E45.31475
G1 X141.585 Y94.957 E45.34988
G1 X142.156 Y95.368 E45.38498
G1 X142.677 Y95.842 E45.42012
G1 X143.141 Y96.372 E45.45527
G1 X143.541 Y96.951 E45.49038
G1 X143.873 Y97.572 E45.52551
G1 X144.133 Y98.226 E45.56062
G1 X144.317 Y98.906 E45.59577
G1 X144.423 Y99.602 E45.63089
G1 X144.45 Y100.183 E45.65991
G1 X144.45 Y126.683 E46.982
G1 X144.41 Y127.386 E47.01713
G1 X144.291 Y128.08 E47.05226
G1 X144.093 Y128.755 E47.08735
G1 X143.821 Y129.404 E47.12246
G1 X143.476 Y130.018 E47.1576
G1 X143.065 Y130.589 E47.1927
G1 X142.591 Y131.11 E47.22784
G1 X142.061 Y131.574 E47.26298
G1 X141.482 Y131.974 E47.29809
G1 X140.861 Y132.306 E47.33322
G1 X140.207 Y132.566 E47.36833
G1 X139.527 Y132.75 E47.40348
G1 X138.831 Y132.856 E47.4386
G1 X138.25 Y132.883 E47.46762
G1 X81.75 Y132.883 E50.28642
G1 X81.047 Y132.843 E50.32154
G1 X80.353 Y132.724 E50.35667
G1 X79.678 Y132.526 E50.39177
G1 X79.029 Y132.254 E50.42688
G1 X78.415 Y131.909 E50.46201
G1 X77.844 Y131.498 E50.49711
G1 X77.323 Y131.024 E50.53225
G1 X76.859 Y130.494 E50.5674
G1 X76.459 Y129.915 E50.60251
G1 X76.127 Y129.294 E50.63764
G1 X75.867 Y128.64 E50.67275
G1 X75.683 Y127.96 E50.70789
G1 X75.577 Y127.264 E50.74302
G1 X75.55 Y126.683 E50.77204
G1 X75.55 Y100.183 E52.09413
G1 X75.59 Y99.48 E52.12926
G1 X75.709 Y98.786 E52.16439
G1 X75.907 Y98.111 E52.19948
G1 X76.179 Y97.462 E52.23459
G1 X76.524 Y96.848 E52.26972
G1 X76.935 Y96.277 E52.30482
G1 X77.409 Y95.756 E52.33996
G1 X77.939 Y95.292 E52.37511
M205 X8.18 Y8.18
G0 F2400 X78.328 Y95.5
M205 X3 Y3
G1 F1200 X78.9 Y95.131 E52.40907
G1 X79.512 Y94.832 E52.44305
G1 X80.154 Y94.607 E52.47699
G1 X80.819 Y94.458 E52.51099
G1 X81.75 Y94.383 E52.55759
G1 X138.25 Y94.383 E55.37638
G1 X138.93 Y94.423 E55.41037
G1 X139.6 Y94.542 E55.44432
G1 X140.252 Y94.739 E55.4783
G1 X140.876 Y95.011 E55.51226
G1 X141.464 Y95.355 E55.54625
G1 X142.008 Y95.765 E55.58023
G1 X142.499 Y96.236 E55.61418
G1 X142.933 Y96.761 E55.64816
G1 X143.302 Y97.333 E55.68212
G1 X143.601 Y97.945 E55.7161
G1 X143.826 Y98.587 E55.75004
G1 X143.975 Y99.252 E55.78404
G1 X144.05 Y100.183 E55.83064
G1 X144.05 Y126.683 E57.15273
G1 X144.01 Y127.363 E57.18671
G1 X143.891 Y128.033 E57.22066
G1 X143.694 Y128.685 E57.25464
G1 X143.422 Y129.309 E57.2886
G1 X143.078 Y129.897 E57.32259
G1 X142.668 Y130.441 E57.35658
G1 X142.197 Y130.932 E57.39052
G1 X141.672 Y131.366 E57.4245
G1 X141.1 Y131.735 E57.45846
G1 X140.488 Y132.034 E57.49244
G1 X139.846 Y132.259 E57.52638
G1 X139.181 Y132.408 E57.56038
G1 X138.25 Y132.483 E57.60698
G1 X81.75 Y132.483 E60.42578
G1 X81.07 Y132.443 E60.45976
G1 X80.4 Y132.324 E60.49371
G1 X79.748 Y132.127 E60.52769
G1 X79.124 Y131.855 E60.56165
G1 X78.536 Y131.511 E60.59564
G1 X77.992 Y131.101 E60.62963
G1 X77.501 Y130.63 E60.66357
G1 X77.067 Y130.105 E60.69755
G1 X76.698 Y129.533 E60.73151
G1 X76.399 Y128.921 E60.7655
G1 X76.174 Y128.279 E60.79944
G1 X76.025 Y127.614 E60.83343
G1 X75.95 Y126.683 E60.88003
G1 X75.95 Y100.183 E62.20212
G1 X75.99 Y99.503 E62.23611
G1 X76.109 Y98.833 E62.27006
G1 X76.306 Y98.181 E62.30404
G1 X76.578 Y97.557 E62.338
G1 X76.922 Y96.969 E62.37199
G1 X77.332 Y96.425 E62.40597
G1 X77.803 Y95.934 E62.43991
G1 X78.328 Y95.5 E62.4739
M205 X8.18 Y8.18
G0 F2400 X78.195 Y96.118
M205 X3 Y3
G1 F1200 X78.715 Y95.717 E62.50666
G1 X79.279 Y95.381 E62.53941
G1 X79.881 Y95.117 E62.57221
G1 X80.51 Y94.927 E62.60499
G1 X81.157 Y94.816 E62.63774
G1 X81.75 Y94.783 E62.66737
G1 X138.25 Y94.783 E65.48617
G1 X138.906 Y94.823 E65.51895
G1 X139.552 Y94.942 E65.55173
G1 X140.179 Y95.139 E65.58451
G1 X140.777 Y95.411 E65.61729
G1 X141.338 Y95.753 E65.65007
G1 X141.853 Y96.161 E65.68285
G1 X142.315 Y96.628 E65.71562
G1 X142.716 Y97.148 E65.74838
G1 X143.052 Y97.712 E65.78114
G1 X143.316 Y98.314 E65.81393
G1 X143.506 Y98.943 E65.84671
G1 X143.617 Y99.59 E65.87946
G1 X143.65 Y100.183 E65.90909
G1 X143.65 Y126.683 E67.23118
G1 X143.61 Y127.339 E67.26397
G1 X143.491 Y127.985 E67.29674
G1 X143.294 Y128.612 E67.32953
G1 X143.022 Y129.21 E67.36231
G1 X142.68 Y129.771 E67.39509
G1 X142.272 Y130.286 E67.42787
G1 X141.805 Y130.748 E67.46064
G1 X141.285 Y131.149 E67.4934
G1 X140.721 Y131.485 E67.52615
G1 X140.119 Y131.749 E67.55895
G1 X139.49 Y131.939 E67.59173
G1 X138.843 Y132.05 E67.62448
G1 X138.25 Y132.083 E67.65411
G1 X81.75 Y132.083 E70.47291
G1 X81.094 Y132.043 E70.5057
G1 X80.448 Y131.924 E70.53847
G1 X79.821 Y131.727 E70.57126
G1 X79.223 Y131.455 E70.60403
G1 X78.662 Y131.113 E70.63681
G1 X78.147 Y130.705 E70.66959
G1 X77.685 Y130.238 E70.70237
G1 X77.284 Y129.718 E70.73513
G1 X76.948 Y129.154 E70.76788
G1 X76.684 Y128.552 E70.80067
G1 X76.494 Y127.923 E70.83346
G1 X76.383 Y127.276 E70.86621
G1 X76.35 Y126.683 E70.89584
G1 X76.35 Y100.183 E72.21793
G1 X76.39 Y99.527 E72.25072
G1 X76.509 Y98.881 E72.28349
G1 X76.706 Y98.254 E72.31628
G1 X76.978 Y97.656 E72.34905
G1 X77.32 Y97.095 E72.38183
G1 X77.728 Y96.58 E72.41461
G1 X78.195 Y96.118 E72.44738
M205 X8.18 Y8.18
G0 F2400 X78.586 Y96.312
M205 X3 Y3
G1 F1200 X79.1 Y95.943 E72.47895
G1 X79.656 Y95.643 E72.51047
G1 X80.245 Y95.415 E72.54198
G1 X80.859 Y95.263 E72.57354
G1 X81.75 Y95.183 E72.61817
G1 X138.25 Y95.183 E75.43696
G1 X138.881 Y95.223 E75.46851
G1 X139.502 Y95.342 E75.50005
G1 X140.102 Y95.539 E75.53156
G1 X140.674 Y95.81 E75.56314
G1 X141.206 Y96.15 E75.59464
G1 X141.691 Y96.556 E75.62619
G1 X142.121 Y97.019 E75.65772
G1 X142.49 Y97.533 E75.68929
G1 X142.79 Y98.089 E75.7208
G1 X143.018 Y98.678 E75.75231
G1 X143.17 Y99.292 E75.78387
G1 X143.25 Y100.183 E75.8285
G1 X143.25 Y126.683 E77.15059
G1 X143.21 Y127.314 E77.18214
G1 X143.091 Y127.935 E77.21368
G1 X142.894 Y128.535 E77.24519
G1 X142.623 Y129.107 E77.27677
G1 X142.283 Y129.639 E77.30827
G1 X141.877 Y130.124 E77.33982
G1 X141.414 Y130.554 E77.37135
G1 X140.9 Y130.923 E77.40291
G1 X140.344 Y131.223 E77.43443
G1 X139.755 Y131.451 E77.46594
G1 X139.141 Y131.603 E77.4975
G1 X138.25 Y131.683 E77.54213
G1 X81.75 Y131.683 E80.36093
G1 X81.119 Y131.643 E80.39247
G1 X80.498 Y131.524 E80.42402
G1 X79.898 Y131.327 E80.45552
G1 X79.326 Y131.056 E80.4871
G1 X78.794 Y130.716 E80.5186
G1 X78.309 Y130.31 E80.55016
G1 X77.879 Y129.847 E80.58168
G1 X77.51 Y129.333 E80.61325
G1 X77.21 Y128.777 E80.64477
G1 X76.982 Y128.188 E80.67628
G1 X76.83 Y127.574 E80.70783
G1 X76.75 Y126.683 E80.75247
G1 X76.75 Y100.183 E82.07456
G1 X76.79 Y99.552 E82.1061
G1 X76.909 Y98.931 E82.13765
G1 X77.106 Y98.331 E82.16915
G1 X77.377 Y97.759 E82.20073
G1 X77.717 Y97.227 E82.23223
G1 X78.123 Y96.742 E82.26378
G1 X78.586 Y96.312 E82.29531
M205 X8.18 Y8.18
G0 F2400 X78.975 Y96.514
M205 X3 Y3
G1 F1200 X79.482 Y96.181 E82.32557
G1 X80.028 Y95.917 E82.35583
G1 X80.604 Y95.728 E82.38607
G1 X81.2 Y95.616 E82.41633
G1 X81.75 Y95.583 E82.44382
G1 X138.25 Y95.583 E85.26261
G1 X138.855 Y95.623 E85.29286
G1 X139.449 Y95.742 E85.32309
G1 X140.023 Y95.938 E85.35335
G1 X140.566 Y96.209 E85.38362
G1 X141.069 Y96.548 E85.41389
G1 X141.522 Y96.95 E85.4441
G1 X141.919 Y97.408 E85.47434
G1 X142.252 Y97.915 E85.5046
G1 X142.516 Y98.461 E85.53486
G1 X142.705 Y99.037 E85.5651
G1 X142.817 Y99.633 E85.59536
G1 X142.85 Y100.183 E85.62285
G1 X142.85 Y126.683 E86.94494
G1 X142.81 Y127.288 E86.97519
G1 X142.691 Y127.882 E87.00541
G1 X142.495 Y128.456 E87.03567
G1 X142.224 Y128.999 E87.06595
G1 X141.885 Y129.502 E87.09621
