;FLAVOR:Marlin
;TIME:2363
;Filament used: 1.94831m
;Layer height: 0.3
;MINX:73.7
;MINY:88.7
;MINZ:0.3
;MAXX:146.3
;MAXY:131.3
;MAXZ:9.9
;Generated with Cura_SteamEngine 4.6.2
M140 S70
M105
M190 S70
M104 S250
M105
M109 S250
M82 ;absolute extrusion mode
G21 ;metric values
G90 ;absolute positioning
M82 ;set extruder to absolute mode
M107 ;start with the fan off
G28 X0 Y0 ;move X/Y to min endstops
G28 Z0 ;move Z to min endstops
G1 Z15.0 F60 ;move the platform down 15mm
G92 E0 ;zero the extruded length
G1 F200 E3 ;extrude 3mm of feed stock
G92 E0 ;zero the extruded length again
G1 F60
M117 Printing...
G5
G92 E0
G92 E0
G1 F1500 E-6.5
;LAYER_COUNT:33
;LAYER:0
M107
M204 S300
M205 X8.18 Y8.18
G0 F2400 X76.722 Y90.334 Z0.3
M205 X3 Y3
;TYPE:SKIRT
G1 F1500 E0
G1 F1200 X77.37 Y89.883 E0.03939
G1 X78.061 Y89.499 E0.07883
G1 X78.786 Y89.187 E0.11821
G1 X79.539 Y88.95 E0.15759
G1 X80.313 Y88.791 E0.19701
G1 X81.098 Y88.71 E0.23638
G1 X138.5 Y88.7 E3.10018
G1 X139.289 Y88.74 E3.13959
G1 X140.069 Y88.859 E3.17896
G1 X140.834 Y89.057 E3.21838
G1 X141.574 Y89.331 E3.25775
G1 X142.283 Y89.679 E3.29715
G1 X142.954 Y90.097 E3.33659
G1 X143.578 Y90.58 E3.37596
G1 X144.151 Y91.123 E3.41535
G1 X144.666 Y91.722 E3.45476
G1 X145.117 Y92.37 E3.49415
G1 X145.501 Y93.061 E3.53359
G1 X145.813 Y93.786 E3.57296
G1 X146.05 Y94.539 E3.61235
G1 X146.209 Y95.313 E3.65177
G1 X146.29 Y96.098 E3.69114
G1 X146.3 Y123.5 E5.05823
G1 X146.26 Y124.289 E5.09765
G1 X146.141 Y125.069 E5.13701
G1 X145.943 Y125.834 E5.17643
G1 X145.669 Y126.574 E5.2158
G1 X145.321 Y127.283 E5.25521
G1 X144.903 Y127.954 E5.29465
G1 X144.42 Y128.578 E5.33401
G1 X143.877 Y129.151 E5.3734
G1 X143.278 Y129.666 E5.41281
G1 X142.63 Y130.117 E5.4522
G1 X141.939 Y130.501 E5.49164
G1 X141.214 Y130.813 E5.53101
G1 X140.461 Y131.05 E5.5704
G1 X139.687 Y131.209 E5.60982
G1 X138.902 Y131.29 E5.64919
G1 X81.5 Y131.3 E8.51299
G1 X80.711 Y131.26 E8.5524
G1 X79.931 Y131.141 E8.59177
G1 X79.166 Y130.943 E8.63119
G1 X78.426 Y130.669 E8.67056
G1 X77.717 Y130.321 E8.70996
G1 X77.046 Y129.903 E8.7494
G1 X76.422 Y129.42 E8.78877
G1 X75.849 Y128.877 E8.82816
G1 X75.334 Y128.278 E8.86757
G1 X74.883 Y127.63 E8.90695
G1 X74.499 Y126.939 E8.94639
G1 X74.187 Y126.214 E8.98577
G1 X73.95 Y125.461 E9.02516
G1 X73.791 Y124.687 E9.06458
G1 X73.71 Y123.902 E9.10395
G1 X73.7 Y96.5 E10.47104
G1 X73.74 Y95.711 E10.51045
G1 X73.859 Y94.931 E10.54982
G1 X74.057 Y94.166 E10.58924
G1 X74.331 Y93.426 E10.62861
G1 X74.679 Y92.717 E10.66801
G1 X75.097 Y92.046 E10.70745
G1 X75.58 Y91.422 E10.74682
G1 X76.123 Y90.849 E10.78621
G1 X76.722 Y90.334 E10.82562
M205 X8.18 Y8.18
G0 F2400 X77.111 Y90.542
M205 X3 Y3
G1 F1200 X77.753 Y90.119 E10.86397
G1 X78.436 Y89.764 E10.90238
G1 X79.151 Y89.483 E10.9407
G1 X79.893 Y89.277 E10.97912
G1 X80.651 Y89.149 E11.01748
G1 X81.5 Y89.1 E11.0599
G1 X138.5 Y89.1 E13.90364
G1 X139.268 Y89.14 E13.94201
G1 X140.028 Y89.259 E13.98039
G1 X140.771 Y89.457 E14.01875
G1 X141.49 Y89.731 E14.05714
G1 X142.176 Y90.078 E14.09549
G1 X142.823 Y90.494 E14.13387
G1 X143.423 Y90.975 E14.17224
G1 X143.97 Y91.516 E14.21062
G1 X144.458 Y92.111 E14.24901
G1 X144.881 Y92.753 E14.28737
G1 X145.236 Y93.436 E14.32577
G1 X145.517 Y94.151 E14.3641
G1 X145.723 Y94.893 E14.40252
G1 X145.851 Y95.651 E14.44087
G1 X145.9 Y96.5 E14.4833
G1 X145.9 Y123.5 E15.83033
G1 X145.86 Y124.268 E15.8687
G1 X145.741 Y125.028 E15.90708
G1 X145.543 Y125.771 E15.94544
G1 X145.269 Y126.49 E15.98383
G1 X144.922 Y127.176 E16.02218
G1 X144.506 Y127.823 E16.06056
G1 X144.025 Y128.423 E16.09892
G1 X143.484 Y128.97 E16.1373
G1 X142.889 Y129.458 E16.1757
G1 X142.247 Y129.881 E16.21405
G1 X141.564 Y130.236 E16.25246
G1 X140.849 Y130.517 E16.29078
G1 X140.107 Y130.723 E16.3292
G1 X139.349 Y130.851 E16.36755
G1 X138.5 Y130.9 E16.40998
G1 X81.5 Y130.9 E19.25372
G1 X80.732 Y130.86 E19.29209
G1 X79.972 Y130.741 E19.33047
G1 X79.229 Y130.543 E19.36883
G1 X78.51 Y130.269 E19.40722
G1 X77.824 Y129.922 E19.44557
G1 X77.177 Y129.506 E19.48395
G1 X76.577 Y129.025 E19.52231
G1 X76.03 Y128.484 E19.5607
G1 X75.542 Y127.889 E19.59909
G1 X75.119 Y127.247 E19.63744
G1 X74.764 Y126.564 E19.67585
G1 X74.483 Y125.849 E19.71418
G1 X74.277 Y125.107 E19.75259
G1 X74.149 Y124.349 E19.79095
G1 X74.1 Y123.5 E19.83337
G1 X74.1 Y96.5 E21.18041
G1 X74.14 Y95.732 E21.21878
G1 X74.259 Y94.972 E21.25715
G1 X74.457 Y94.229 E21.29552
G1 X74.731 Y93.51 E21.3339
G1 X75.078 Y92.824 E21.37226
G1 X75.494 Y92.177 E21.41063
G1 X75.975 Y91.577 E21.449
G1 X76.516 Y91.03 E21.48738
G1 X77.111 Y90.542 E21.52577
M205 X8.18 Y8.18
G0 F2400 X77.498 Y90.757
M205 X3 Y3
G1 F1200 X78.134 Y90.362 E21.56313
G1 X78.808 Y90.038 E21.60044
G1 X79.513 Y89.788 E21.63775
G1 X80.241 Y89.614 E21.6751
G1 X80.983 Y89.519 E21.71242
G1 X81.5 Y89.5 E21.73823
G1 X138.5 Y89.5 E24.58197
G1 X139.247 Y89.54 E24.61929
G1 X139.985 Y89.659 E24.65659
G1 X140.707 Y89.857 E24.69394
G1 X141.403 Y90.13 E24.73124
G1 X142.066 Y90.477 E24.76857
G1 X142.689 Y90.892 E24.80592
G1 X143.263 Y91.371 E24.84321
G1 X143.784 Y91.908 E24.88054
G1 X144.243 Y92.498 E24.91784
G1 X144.638 Y93.134 E24.95519
G1 X144.962 Y93.808 E24.9925
G1 X145.212 Y94.513 E25.02982
G1 X145.386 Y95.241 E25.06716
G1 X145.481 Y95.983 E25.10448
G1 X145.5 Y96.5 E25.13029
G1 X145.5 Y123.5 E26.47733
G1 X145.46 Y124.247 E26.51465
G1 X145.341 Y124.985 E26.55194
G1 X145.143 Y125.707 E26.58929
G1 X144.87 Y126.403 E26.62659
G1 X144.523 Y127.066 E26.66392
G1 X144.108 Y127.689 E26.70127
G1 X143.629 Y128.263 E26.73857
G1 X143.092 Y128.784 E26.7759
G1 X142.502 Y129.243 E26.81319
G1 X141.866 Y129.638 E26.85054
G1 X141.192 Y129.962 E26.88785
G1 X140.487 Y130.212 E26.92517
G1 X139.759 Y130.386 E26.96251
G1 X139.017 Y130.481 E26.99983
G1 X138.5 Y130.5 E27.02565
G1 X81.5 Y130.5 E29.86939
G1 X80.753 Y130.46 E29.90671
G1 X80.015 Y130.341 E29.944
G1 X79.293 Y130.143 E29.98135
G1 X78.597 Y129.87 E30.01865
G1 X77.934 Y129.523 E30.05599
G1 X77.311 Y129.108 E30.09333
G1 X76.737 Y128.629 E30.13063
G1 X76.216 Y128.092 E30.16796
G1 X75.757 Y127.502 E30.20525
G1 X75.362 Y126.866 E30.2426
G1 X75.038 Y126.192 E30.27991
G1 X74.788 Y125.487 E30.31723
G1 X74.614 Y124.759 E30.35458
G1 X74.519 Y124.017 E30.3919
G1 X74.5 Y123.5 E30.41771
G1 X74.5 Y96.5 E31.76474
G1 X74.54 Y95.753 E31.80206
G1 X74.659 Y95.015 E31.83936
G1 X74.857 Y94.293 E31.87671
G1 X75.13 Y93.597 E31.91401
G1 X75.477 Y92.934 E31.95134
G1 X75.892 Y92.311 E31.98869
G1 X76.371 Y91.737 E32.02599
G1 X76.908 Y91.216 E32.06331
G1 X77.498 Y90.757 E32.10061
M205 X8.18 Y8.18
G0 F2400 X77.299 Y91.409
M205 X3 Y3
G1 F1200 X77.884 Y90.979 E32.13683
G1 X78.513 Y90.615 E32.17309
G1 X79.178 Y90.322 E32.20934
G1 X79.871 Y90.104 E32.24559
G1 X80.583 Y89.964 E32.28179
G1 X81.5 Y89.9 E32.32765
G1 X138.5 Y89.9 E35.17139
G1 X139.225 Y89.94 E35.20762
G1 X139.942 Y90.059 E35.24388
G1 X140.641 Y90.257 E35.28012
G1 X141.314 Y90.53 E35.31635
G1 X141.953 Y90.875 E35.35258
G1 X142.55 Y91.289 E35.38883
G1 X143.098 Y91.765 E35.42504
G1 X143.591 Y92.299 E35.4613
G1 X144.021 Y92.884 E35.49752
G1 X144.385 Y93.513 E35.53378
G1 X144.678 Y94.178 E35.57004
G1 X144.896 Y94.871 E35.60628
G1 X145.036 Y95.583 E35.64248
G1 X145.1 Y96.5 E35.68834
G1 X145.1 Y123.5 E37.03538
G1 X145.06 Y124.225 E37.0716
G1 X144.941 Y124.942 E37.10786
G1 X144.743 Y125.641 E37.14411
G1 X144.47 Y126.314 E37.18034
G1 X144.125 Y126.953 E37.21657
G1 X143.711 Y127.55 E37.25282
G1 X143.235 Y128.098 E37.28903
G1 X142.701 Y128.591 E37.32529
G1 X142.116 Y129.021 E37.36151
G1 X141.487 Y129.385 E37.39777
G1 X140.822 Y129.678 E37.43402
G1 X140.129 Y129.896 E37.47027
G1 X139.417 Y130.036 E37.50647
G1 X138.5 Y130.1 E37.55233
G1 X81.5 Y130.1 E40.39607
G1 X80.775 Y130.06 E40.4323
G1 X80.058 Y129.941 E40.46856
G1 X79.359 Y129.743 E40.5048
G1 X78.686 Y129.47 E40.54104
G1 X78.047 Y129.125 E40.57727
G1 X77.45 Y128.711 E40.61351
G1 X76.902 Y128.235 E40.64972
G1 X76.409 Y127.701 E40.68598
G1 X75.979 Y127.116 E40.72221
G1 X75.615 Y126.487 E40.75846
G1 X75.322 Y125.822 E40.79472
G1 X75.104 Y125.129 E40.83096
G1 X74.964 Y124.417 E40.86716
G1 X74.9 Y123.5 E40.91302
G1 X74.9 Y96.5 E42.26006
G1 X74.94 Y95.775 E42.29628
G1 X75.059 Y95.058 E42.33255
G1 X75.257 Y94.359 E42.36879
G1 X75.53 Y93.686 E42.40502
G1 X75.875 Y93.047 E42.44125
G1 X76.289 Y92.45 E42.4775
G1 X76.765 Y91.902 E42.51371
G1 X77.299 Y91.409 E42.54997
M205 X8.18 Y8.18
G0 F2400 X77.689 Y91.609
M205 X3 Y3
G1 F1200 X78.268 Y91.209 E42.58508
G1 X78.889 Y90.877 E42.62021
G1 X79.543 Y90.617 E42.65532
G1 X80.223 Y90.433 E42.69047
G1 X80.919 Y90.327 E42.72559
G1 X81.5 Y90.3 E42.75461
G1 X138.5 Y90.3 E45.59835
G1 X139.203 Y90.34 E45.63348
G1 X139.897 Y90.459 E45.66861
G1 X140.572 Y90.657 E45.70371
G1 X141.221 Y90.929 E45.73881
G1 X141.835 Y91.274 E45.77395
G1 X142.406 Y91.685 E45.80905
G1 X142.927 Y92.159 E45.84419
G1 X143.391 Y92.689 E45.87933
G1 X143.791 Y93.268 E45.91444
G1 X144.123 Y93.889 E45.94958
G1 X144.383 Y94.543 E45.98469
G1 X144.567 Y95.223 E46.01983
G1 X144.673 Y95.919 E46.05496
G1 X144.7 Y96.5 E46.08397
G1 X144.7 Y123.5 E47.43101
G1 X144.66 Y124.203 E47.46614
G1 X144.541 Y124.897 E47.50127
G1 X144.343 Y125.572 E47.53636
G1 X144.071 Y126.221 E47.57147
G1 X143.726 Y126.835 E47.60661
G1 X143.315 Y127.406 E47.64171
G1 X142.841 Y127.927 E47.67685
G1 X142.311 Y128.391 E47.71199
G1 X141.732 Y128.791 E47.7471
G1 X141.111 Y129.123 E47.78223
G1 X140.457 Y129.383 E47.81734
G1 X139.777 Y129.567 E47.85249
G1 X139.081 Y129.673 E47.88761
G1 X138.5 Y129.7 E47.91663
G1 X81.5 Y129.7 E50.76037
G1 X80.797 Y129.66 E50.7955
G1 X80.103 Y129.541 E50.83063
G1 X79.428 Y129.343 E50.86573
G1 X78.779 Y129.071 E50.90083
G1 X78.165 Y128.726 E50.93597
G1 X77.594 Y128.315 E50.97107
G1 X77.073 Y127.841 E51.00621
G1 X76.609 Y127.311 E51.04135
G1 X76.209 Y126.732 E51.07646
G1 X75.877 Y126.111 E51.11159
G1 X75.617 Y125.457 E51.14671
G1 X75.433 Y124.777 E51.18185
G1 X75.327 Y124.081 E51.21698
G1 X75.3 Y123.5 E51.24599
G1 X75.3 Y96.5 E52.59303
G1 X75.34 Y95.797 E52.62816
G1 X75.459 Y95.103 E52.66329
G1 X75.657 Y94.428 E52.69838
G1 X75.929 Y93.779 E52.73349
G1 X76.274 Y93.165 E52.76863
G1 X76.685 Y92.594 E52.80373
G1 X77.159 Y92.073 E52.83887
G1 X77.689 Y91.609 E52.87401
M205 X8.18 Y8.18
G0 F2400 X78.078 Y91.817
M205 X3 Y3
G1 F1200 X78.65 Y91.448 E52.90797
G1 X79.262 Y91.149 E52.94195
G1 X79.904 Y90.924 E52.97589
G1 X80.569 Y90.775 E53.00989
G1 X81.5 Y90.7 E53.05649
G1 X138.5 Y90.7 E55.90023
G1 X139.18 Y90.74 E55.93421
G1 X139.85 Y90.859 E55.96816
G1 X140.502 Y91.056 E56.00214
G1 X141.126 Y91.328 E56.03611
G1 X141.714 Y91.672 E56.07009
G1 X142.258 Y92.082 E56.10408
G1 X142.749 Y92.553 E56.13802
G1 X143.183 Y93.078 E56.17201
G1 X143.552 Y93.65 E56.20597
G1 X143.851 Y94.262 E56.23995
G1 X144.076 Y94.904 E56.27389
G1 X144.225 Y95.569 E56.30789
G1 X144.3 Y96.5 E56.35448
G1 X144.3 Y123.5 E57.70152
G1 X144.26 Y124.18 E57.7355
G1 X144.141 Y124.85 E57.76945
G1 X143.944 Y125.502 E57.80343
G1 X143.672 Y126.126 E57.8374
G1 X143.328 Y126.714 E57.87138
G1 X142.918 Y127.258 E57.90537
G1 X142.447 Y127.749 E57.93931
G1 X141.922 Y128.183 E57.9733
G1 X141.35 Y128.552 E58.00726
G1 X140.738 Y128.851 E58.04124
G1 X140.096 Y129.076 E58.07518
G1 X139.431 Y129.225 E58.10918
G1 X138.5 Y129.3 E58.15577
G1 X81.5 Y129.3 E60.99952
G1 X80.82 Y129.26 E61.0335
G1 X80.15 Y129.141 E61.06745
G1 X79.498 Y128.944 E61.10143
G1 X78.874 Y128.672 E61.13539
G1 X78.286 Y128.328 E61.16938
G1 X77.742 Y127.918 E61.20336
G1 X77.251 Y127.447 E61.23731
G1 X76.817 Y126.922 E61.27129
G1 X76.448 Y126.35 E61.30525
G1 X76.149 Y125.738 E61.33923
G1 X75.924 Y125.096 E61.37317
G1 X75.775 Y124.431 E61.40717
G1 X75.7 Y123.5 E61.45377
G1 X75.7 Y96.5 E62.80081
G1 X75.74 Y95.82 E62.83479
G1 X75.859 Y95.15 E62.86874
G1 X76.056 Y94.498 E62.90272
G1 X76.328 Y93.874 E62.93668
G1 X76.672 Y93.286 E62.97067
G1 X77.082 Y92.742 E63.00465
G1 X77.553 Y92.251 E63.0386
G1 X78.078 Y91.817 E63.07258
M205 X8.18 Y8.18
G0 F2400 X77.945 Y92.435
M205 X3 Y3
G1 F1200 X78.465 Y92.034 E63.10534
G1 X79.029 Y91.698 E63.13809
G1 X79.631 Y91.434 E63.17089
G1 X80.26 Y91.244 E63.20367
G1 X80.907 Y91.133 E63.23642
G1 X81.5 Y91.1 E63.26605
G1 X138.5 Y91.1 E66.10979
G1 X139.156 Y91.14 E66.14258
G1 X139.802 Y91.259 E66.17535
G1 X140.429 Y91.456 E66.20814
G1 X141.027 Y91.728 E66.24092
G1 X141.588 Y92.07 E66.2737
G1 X142.103 Y92.478 E66.30648
G1 X142.565 Y92.945 E66.33925
G1 X142.966 Y93.465 E66.37201
G1 X143.302 Y94.029 E66.40476
G1 X143.566 Y94.631 E66.43756
G1 X143.756 Y95.26 E66.47034
G1 X143.867 Y95.907 E66.50309
G1 X143.9 Y96.5 E66.53272
G1 X143.9 Y123.5 E67.87976
G1 X143.86 Y124.156 E67.91255
G1 X143.741 Y124.802 E67.94532
G1 X143.544 Y125.429 E67.97811
G1 X143.272 Y126.027 E68.01088
G1 X142.93 Y126.588 E68.04366
G1 X142.522 Y127.103 E68.07644
G1 X142.055 Y127.565 E68.10921
G1 X141.535 Y127.966 E68.14197
G1 X140.971 Y128.302 E68.17473
G1 X140.369 Y128.566 E68.20752
G1 X139.74 Y128.756 E68.2403
G1 X139.093 Y128.867 E68.27305
G1 X138.5 Y128.9 E68.30268
G1 X81.5 Y128.9 E71.14643
G1 X80.844 Y128.86 E71.17922
G1 X80.198 Y128.741 E71.21199
G1 X79.571 Y128.544 E71.24478
G1 X78.973 Y128.272 E71.27755
G1 X78.412 Y127.93 E71.31033
G1 X77.897 Y127.522 E71.34311
G1 X77.435 Y127.055 E71.37588
G1 X77.034 Y126.535 E71.40864
G1 X76.698 Y125.971 E71.4414
G1 X76.434 Y125.369 E71.47419
G1 X76.244 Y124.74 E71.50697
G1 X76.133 Y124.093 E71.53972
G1 X76.1 Y123.5 E71.56935
G1 X76.1 Y96.5 E72.91639
G1 X76.14 Y95.844 E72.94918
G1 X76.259 Y95.198 E72.98195
G1 X76.456 Y94.571 E73.01474
G1 X76.728 Y93.973 E73.04751
G1 X77.07 Y93.412 E73.08029
G1 X77.478 Y92.897 E73.11307
G1 X77.945 Y92.435 E73.14585
M205 X8.18 Y8.18
G0 F2400 X78.336 Y92.629
M205 X3 Y3
G1 F1200 X78.85 Y92.26 E73.17741
G1 X79.406 Y91.96 E73.20893
G1 X79.995 Y91.732 E73.24044
G1 X80.609 Y91.58 E73.272
G1 X81.5 Y91.5 E73.31663
G1 X138.5 Y91.5 E76.16037
G1 X139.131 Y91.54 E76.19192
G1 X139.752 Y91.659 E76.22346
G1 X140.352 Y91.856 E76.25497
G1 X140.924 Y92.127 E76.28655
G1 X141.456 Y92.467 E76.31805
G1 X141.941 Y92.873 E76.3496
G1 X142.371 Y93.336 E76.38113
G1 X142.74 Y93.85 E76.41269
G1 X143.04 Y94.406 E76.44421
G1 X143.268 Y94.995 E76.47572
G1 X143.42 Y95.609 E76.50728
G1 X143.5 Y96.5 E76.55191
G1 X143.5 Y123.5 E77.89895
G1 X143.46 Y124.131 E77.93049
G1 X143.341 Y124.752 E77.96204
G1 X143.144 Y125.352 E77.99354
G1 X142.873 Y125.924 E78.02512
G1 X142.533 Y126.456 E78.05662
G1 X142.127 Y126.941 E78.08817
G1 X141.664 Y127.371 E78.1197
G1 X141.15 Y127.74 E78.15127
G1 X140.594 Y128.04 E78.18279
G1 X140.005 Y128.268 E78.2143
G1 X139.391 Y128.42 E78.24585
G1 X138.5 Y128.5 E78.29048
G1 X81.5 Y128.5 E81.13423
G1 X80.869 Y128.46 E81.16577
G1 X80.248 Y128.341 E81.19732
G1 X79.648 Y128.144 E81.22882
G1 X79.076 Y127.873 E81.2604
G1 X78.544 Y127.533 E81.2919
G1 X78.059 Y127.127 E81.32345
G1 X77.629 Y126.664 E81.35498
G1 X77.26 Y126.15 E81.38655
G1 X76.96 Y125.594 E81.41807
G1 X76.732 Y125.005 E81.44958
G1 X76.58 Y124.391 E81.48113
G1 X76.5 Y123.5 E81.52576
G1 X76.5 Y96.5 E82.8728
G1 X76.54 Y95.869 E82.90434
G1 X76.659 Y95.248 E82.93589
G1 X76.856 Y94.648 E82.96739
G1 X77.127 Y94.076 E82.99897
G1 X77.467 Y93.544 E83.03047
G1 X77.873 Y93.059 E83.06203
G1 X78.336 Y92.629 E83.09355
M205 X8.18 Y8.18
G0 F2400 X78.725 Y92.831
M205 X3 Y3
G1 F1200 X79.232 Y92.498 E83.12381
G1 X79.778 Y92.234 E83.15407
G1 X80.354 Y92.045 E83.18432
G1 X80.95 Y91.933 E83.21457
G1 X81.5 Y91.9 E83.24206
G1 X138.5 Y91.9 E86.0858
G1 X139.105 Y91.94 E86.11605
G1 X139.699 Y92.059 E86.14627
G1 X140.273 Y92.255 E86.17653
G1 X140.816 Y92.526 E86.20681
G1 X141.319 Y92.865 E86.23707
G1 X141.772 Y93.267 E86.26729
G1 X142.169 Y93.725 E86.29753
G1 X142.502 Y94.232 E86.32779
G1 X142.766 Y94.778 E86.35805
G1 X142.955 Y95.354 E86.38829
G1 X143.067 Y95.95 E86.41855
G1 X143.1 Y96.5 E86.44604
G1 X143.1 Y123.5 E87.79307
G1 X143.06 Y124.105 E87.82332
G1 X142.941 Y124.699 E87.85355
G1 X142.745 Y125.273 E87.88381
G1 X142.474 Y125.816 E87.91408
G1 X142.135 Y126.319 E87.94434
G1 X141.733 Y126.772 E87.97456
G1 X141.275 Y127.169 E88.0048
G1 X140.768 Y127.502 E88.03506
G1 X140.222 Y127.766 E88.06532
G1 X139.646 Y127.955 E88.09556
G1 X139.05 Y128.067 E88.12582
G1 X138.5 Y128.1 E88.15331
