;FLAVOR:Marlin
;TIME:4401
;Filament used: 1.97903m
;Layer height: 0.15
;MINX:73.95
;MINY:88.733
;MINZ:0.3
;MAXX:146.05
;MAXY:130.833
;MAXZ:10.65
;Generated with Cura_SteamEngine 4.7.1
M140 S70
M105
M190 S70
M104 S250
M105
M109 S250
M82 ;absolute extrusion mode
G21 ;metric values
G90 ;absolute positioning
M82 ;set extruder to absolute mode
M107 ;start with the fan off
G28 X0 Y0 ;move X/Y to min endstops
G28 Z0 ;move Z to min endstops
G1 Z15.0 F60 ;move the platform down 15mm
G92 E0 ;zero the extruded length
G1 F200 E3 ;extrude 3mm of feed stock
G92 E0 ;zero the extruded length again
G1 F60
M117 Printing...
G5
G92 E0
G92 E0
G1 F1500 E-6.5
;LAYER_COUNT:70
;LAYER:0
M107
M204 S300
M205 X8.18 Y8.18
G0 F2400 X76.972 Y90.367 Z0.3
M205 X3 Y3
;TYPE:SKIRT
G1 F1500 E0
G1 F1200 X77.62 Y89.916 E0.03939
G1 X78.311 Y89.532 E0.07883
G1 X79.036 Y89.22 E0.11821
G1 X79.789 Y88.983 E0.15759
G1 X80.563 Y88.824 E0.19701
G1 X81.348 Y88.743 E0.23638
G1 X81.75 Y88.733 E0.25644
G1 X138.25 Y88.733 E3.07524
G1 X139.039 Y88.773 E3.11466
G1 X139.819 Y88.892 E3.15402
G1 X140.584 Y89.09 E3.19344
G1 X141.324 Y89.364 E3.23281
G1 X142.033 Y89.712 E3.27221
G1 X142.704 Y90.13 E3.31166
G1 X143.328 Y90.613 E3.35102
G1 X143.901 Y91.156 E3.39041
G1 X144.416 Y91.755 E3.42982
G1 X144.867 Y92.403 E3.46921
G1 X145.251 Y93.094 E3.50865
G1 X145.563 Y93.819 E3.54802
G1 X145.8 Y94.572 E3.58741
G1 X145.959 Y95.346 E3.62683
G1 X146.04 Y96.131 E3.6662
G1 X146.05 Y96.533 E3.68626
G1 X146.05 Y123.033 E5.00835
G1 X146.01 Y123.822 E5.04777
G1 X145.891 Y124.602 E5.08713
G1 X145.693 Y125.367 E5.12656
G1 X145.419 Y126.107 E5.16592
G1 X145.071 Y126.816 E5.20533
G1 X144.653 Y127.487 E5.24477
G1 X144.17 Y128.111 E5.28414
G1 X143.627 Y128.684 E5.32352
G1 X143.028 Y129.199 E5.36293
G1 X142.38 Y129.65 E5.40232
G1 X141.689 Y130.034 E5.44176
G1 X140.964 Y130.346 E5.48114
G1 X140.211 Y130.583 E5.52052
G1 X139.437 Y130.742 E5.55994
G1 X138.652 Y130.823 E5.59931
G1 X138.25 Y130.833 E5.61938
G1 X81.75 Y130.833 E8.43817
G1 X80.961 Y130.793 E8.47759
G1 X80.181 Y130.674 E8.51695
G1 X79.416 Y130.476 E8.55637
G1 X78.676 Y130.202 E8.59574
G1 X77.967 Y129.854 E8.63515
G1 X77.296 Y129.436 E8.67459
G1 X76.672 Y128.953 E8.71395
G1 X76.099 Y128.41 E8.75334
G1 X75.584 Y127.811 E8.79275
G1 X75.133 Y127.163 E8.83214
G1 X74.749 Y126.472 E8.87158
G1 X74.437 Y125.747 E8.91095
G1 X74.2 Y124.994 E8.95034
G1 X74.041 Y124.22 E8.98976
G1 X73.96 Y123.435 E9.02913
G1 X73.95 Y123.033 E9.04919
G1 X73.95 Y96.533 E10.37128
G1 X73.99 Y95.744 E10.4107
G1 X74.109 Y94.964 E10.45006
G1 X74.307 Y94.199 E10.48949
G1 X74.581 Y93.459 E10.52885
G1 X74.929 Y92.75 E10.56826
G1 X75.347 Y92.079 E10.6077
G1 X75.83 Y91.455 E10.64707
G1 X76.373 Y90.882 E10.68645
G1 X76.972 Y90.367 E10.72586
M205 X8.18 Y8.18
G0 F2400 X77.361 Y90.575
M205 X3 Y3
G1 F1200 X78.003 Y90.152 E10.76422
G1 X78.686 Y89.797 E10.80262
G1 X79.401 Y89.516 E10.84095
G1 X80.143 Y89.31 E10.87937
G1 X80.901 Y89.182 E10.91772
G1 X81.75 Y89.133 E10.96015
G1 X138.25 Y89.133 E13.77894
G1 X139.018 Y89.173 E13.81731
G1 X139.778 Y89.292 E13.85569
G1 X140.521 Y89.49 E13.89405
G1 X141.24 Y89.764 E13.93244
G1 X141.926 Y90.111 E13.97079
G1 X142.573 Y90.527 E14.00917
G1 X143.173 Y91.008 E14.04753
G1 X143.72 Y91.549 E14.08592
G1 X144.208 Y92.144 E14.12431
G1 X144.631 Y92.786 E14.16267
G1 X144.986 Y93.469 E14.20107
G1 X145.267 Y94.184 E14.2394
G1 X145.473 Y94.926 E14.27781
G1 X145.601 Y95.684 E14.31617
G1 X145.65 Y96.533 E14.35859
G1 X145.65 Y123.033 E15.68068
G1 X145.61 Y123.801 E15.71905
G1 X145.491 Y124.561 E15.75743
G1 X145.293 Y125.304 E15.79579
G1 X145.019 Y126.023 E15.83418
G1 X144.672 Y126.709 E15.87253
G1 X144.256 Y127.356 E15.91091
G1 X143.775 Y127.956 E15.94928
G1 X143.234 Y128.503 E15.98766
G1 X142.639 Y128.991 E16.02605
G1 X141.997 Y129.414 E16.06441
G1 X141.314 Y129.769 E16.10281
G1 X140.599 Y130.05 E16.14114
G1 X139.857 Y130.256 E16.17956
G1 X139.099 Y130.384 E16.21791
G1 X138.25 Y130.433 E16.26034
G1 X81.75 Y130.433 E19.07913
G1 X80.982 Y130.393 E19.1175
G1 X80.222 Y130.274 E19.15588
G1 X79.479 Y130.076 E19.19424
G1 X78.76 Y129.802 E19.23263
G1 X78.074 Y129.455 E19.27098
G1 X77.427 Y129.039 E19.30936
G1 X76.827 Y128.558 E19.34772
G1 X76.28 Y128.017 E19.3861
G1 X75.792 Y127.422 E19.4245
G1 X75.369 Y126.78 E19.46285
G1 X75.014 Y126.097 E19.50126
G1 X74.733 Y125.382 E19.53958
G1 X74.527 Y124.64 E19.578
G1 X74.399 Y123.882 E19.61635
G1 X74.35 Y123.033 E19.65878
G1 X74.35 Y96.533 E20.98087
G1 X74.39 Y95.765 E21.01924
G1 X74.509 Y95.005 E21.05762
G1 X74.707 Y94.262 E21.09598
G1 X74.981 Y93.543 E21.13437
G1 X75.328 Y92.857 E21.17272
G1 X75.744 Y92.21 E21.2111
G1 X76.225 Y91.61 E21.24946
G1 X76.766 Y91.063 E21.28785
G1 X77.361 Y90.575 E21.32624
M205 X8.18 Y8.18
G0 F2400 X77.748 Y90.79
M205 X3 Y3
G1 F1200 X78.384 Y90.395 E21.36359
G1 X79.058 Y90.071 E21.4009
G1 X79.763 Y89.821 E21.43822
G1 X80.491 Y89.647 E21.47556
G1 X81.233 Y89.552 E21.51288
G1 X81.75 Y89.533 E21.53869
G1 X138.25 Y89.533 E24.35749
G1 X138.997 Y89.573 E24.39481
G1 X139.735 Y89.692 E24.4321
G1 X140.457 Y89.89 E24.46945
G1 X141.153 Y90.163 E24.50675
G1 X141.816 Y90.51 E24.54409
G1 X142.439 Y90.925 E24.58143
G1 X143.013 Y91.404 E24.61873
G1 X143.534 Y91.941 E24.65606
G1 X143.993 Y92.531 E24.69335
G1 X144.388 Y93.167 E24.73071
G1 X144.712 Y93.841 E24.76802
G1 X144.962 Y94.546 E24.80533
G1 X145.136 Y95.274 E24.84268
G1 X145.231 Y96.016 E24.88
G1 X145.25 Y96.533 E24.90581
G1 X145.25 Y123.033 E26.2279
G1 X145.21 Y123.78 E26.26522
G1 X145.091 Y124.518 E26.30251
G1 X144.893 Y125.24 E26.33987
G1 X144.62 Y125.936 E26.37716
G1 X144.273 Y126.599 E26.4145
G1 X143.858 Y127.222 E26.45184
G1 X143.379 Y127.796 E26.48914
G1 X142.842 Y128.317 E26.52647
G1 X142.252 Y128.776 E26.56376
G1 X141.616 Y129.171 E26.60112
G1 X140.942 Y129.495 E26.63843
G1 X140.237 Y129.745 E26.67574
G1 X139.509 Y129.919 E26.71309
G1 X138.767 Y130.014 E26.75041
G1 X138.25 Y130.033 E26.77622
G1 X81.75 Y130.033 E29.59502
G1 X81.003 Y129.993 E29.63234
G1 X80.265 Y129.874 E29.66963
G1 X79.543 Y129.676 E29.70698
G1 X78.847 Y129.403 E29.74428
G1 X78.184 Y129.056 E29.78161
G1 X77.561 Y128.641 E29.81896
G1 X76.987 Y128.162 E29.85626
G1 X76.466 Y127.625 E29.89359
G1 X76.007 Y127.035 E29.93088
G1 X75.612 Y126.399 E29.96823
G1 X75.288 Y125.725 E30.00554
G1 X75.038 Y125.02 E30.04286
G1 X74.864 Y124.292 E30.0802
G1 X74.769 Y123.55 E30.11752
G1 X74.75 Y123.033 E30.14334
G1 X74.75 Y96.533 E31.46543
G1 X74.79 Y95.786 E31.50275
G1 X74.909 Y95.048 E31.54004
G1 X75.107 Y94.326 E31.57739
G1 X75.38 Y93.63 E31.61469
G1 X75.727 Y92.967 E31.65203
G1 X76.142 Y92.344 E31.68937
G1 X76.621 Y91.77 E31.72667
G1 X77.158 Y91.249 E31.764
G1 X77.748 Y90.79 E31.80129
M205 X8.18 Y8.18
G0 F2400 X77.549 Y91.442
M205 X3 Y3
G1 F1200 X78.134 Y91.012 E31.83751
G1 X78.763 Y90.648 E31.87377
G1 X79.428 Y90.355 E31.91002
G1 X80.121 Y90.137 E31.94627
G1 X80.833 Y89.997 E31.98247
G1 X81.75 Y89.933 E32.02833
G1 X138.25 Y89.933 E34.84713
G1 X138.975 Y89.973 E34.88335
G1 X139.692 Y90.092 E34.91961
G1 X140.391 Y90.29 E34.95586
G1 X141.064 Y90.563 E34.99209
G1 X141.703 Y90.908 E35.02832
G1 X142.3 Y91.322 E35.06457
G1 X142.848 Y91.798 E35.10078
G1 X143.341 Y92.332 E35.13704
G1 X143.771 Y92.917 E35.17326
G1 X144.135 Y93.546 E35.20952
G1 X144.428 Y94.211 E35.24577
G1 X144.646 Y94.904 E35.28202
G1 X144.786 Y95.616 E35.31822
G1 X144.85 Y96.533 E35.36408
G1 X144.85 Y123.033 E36.68617
G1 X144.81 Y123.758 E36.7224
G1 X144.691 Y124.475 E36.75866
G1 X144.493 Y125.174 E36.7949
G1 X144.22 Y125.847 E36.83114
G1 X143.875 Y126.486 E36.86737
G1 X143.461 Y127.083 E36.90361
G1 X142.985 Y127.631 E36.93982
G1 X142.451 Y128.124 E36.97608
G1 X141.866 Y128.554 E37.0123
G1 X141.237 Y128.918 E37.04856
G1 X140.572 Y129.211 E37.08482
G1 X139.879 Y129.429 E37.12106
G1 X139.167 Y129.569 E37.15726
G1 X138.25 Y129.633 E37.20312
G1 X81.75 Y129.633 E40.02192
G1 X81.025 Y129.593 E40.05814
G1 X80.308 Y129.474 E40.09441
G1 X79.609 Y129.276 E40.13065
G1 X78.936 Y129.003 E40.16688
G1 X78.297 Y128.658 E40.20311
G1 X77.7 Y128.244 E40.23936
G1 X77.152 Y127.768 E40.27557
G1 X76.659 Y127.234 E40.31183
G1 X76.229 Y126.649 E40.34805
G1 X75.865 Y126.02 E40.38431
G1 X75.572 Y125.355 E40.42057
G1 X75.354 Y124.662 E40.45681
G1 X75.214 Y123.95 E40.49301
G1 X75.15 Y123.033 E40.53887
G1 X75.15 Y96.533 E41.86096
G1 X75.19 Y95.808 E41.89719
G1 X75.309 Y95.091 E41.93345
G1 X75.507 Y94.392 E41.96969
G1 X75.78 Y93.719 E42.00593
G1 X76.125 Y93.08 E42.04216
G1 X76.539 Y92.483 E42.0784
G1 X77.015 Y91.935 E42.11462
G1 X77.549 Y91.442 E42.15087
M205 X8.18 Y8.18
G0 F2400 X77.939 Y91.642
M205 X3 Y3
G1 F1200 X78.518 Y91.242 E42.18598
G1 X79.139 Y90.91 E42.22112
G1 X79.793 Y90.65 E42.25623
G1 X80.473 Y90.466 E42.29137
G1 X81.169 Y90.36 E42.3265
G1 X81.75 Y90.333 E42.35551
G1 X138.25 Y90.333 E45.17431
G1 X138.953 Y90.373 E45.20944
G1 X139.647 Y90.492 E45.24457
G1 X140.322 Y90.69 E45.27966
G1 X140.971 Y90.962 E45.31477
G1 X141.585 Y91.307 E45.34991
G1 X142.156 Y91.718 E45.38501
G1 X142.677 Y92.192 E45.42015
G1 X143.141 Y92.722 E45.45529
G1 X143.541 Y93.301 E45.4904
G1 X143.873 Y93.922 E45.52553
G1 X144.133 Y94.576 E45.56064
G1 X144.317 Y95.256 E45.59579
G1 X144.423 Y95.952 E45.63091
G1 X144.45 Y96.533 E45.65993
G1 X144.45 Y123.033 E46.98202
G1 X144.41 Y123.736 E47.01715
G1 X144.291 Y124.43 E47.05228
G1 X144.093 Y125.105 E47.08738
G1 X143.821 Y125.754 E47.12248
G1 X143.476 Y126.368 E47.15762
G1 X143.065 Y126.939 E47.19272
G1 X142.591 Y127.46 E47.22786
G1 X142.061 Y127.924 E47.263
G1 X141.482 Y128.324 E47.29811
G1 X140.861 Y128.656 E47.33324
G1 X140.207 Y128.916 E47.36836
G1 X139.527 Y129.1 E47.4035
G1 X138.831 Y129.206 E47.43863
G1 X138.25 Y129.233 E47.46764
G1 X81.75 Y129.233 E50.28644
G1 X81.047 Y129.193 E50.32157
G1 X80.353 Y129.074 E50.3567
G1 X79.678 Y128.876 E50.39179
G1 X79.029 Y128.604 E50.4269
G1 X78.415 Y128.259 E50.46204
G1 X77.844 Y127.848 E50.49714
G1 X77.323 Y127.374 E50.53228
G1 X76.859 Y126.844 E50.56742
G1 X76.459 Y126.265 E50.60253
G1 X76.127 Y125.644 E50.63766
G1 X75.867 Y124.99 E50.67277
G1 X75.683 Y124.31 E50.70792
G1 X75.577 Y123.614 E50.74304
G1 X75.55 Y123.033 E50.77206
G1 X75.55 Y96.533 E52.09415
G1 X75.59 Y95.83 E52.12928
G1 X75.709 Y95.136 E52.16441
G1 X75.907 Y94.461 E52.1995
G1 X76.179 Y93.812 E52.23461
G1 X76.524 Y93.198 E52.26975
G1 X76.935 Y92.627 E52.30485
G1 X77.409 Y92.106 E52.33999
G1 X77.939 Y91.642 E52.37513
M205 X8.18 Y8.18
G0 F2400 X78.328 Y91.85
M205 X3 Y3
G1 F1200 X78.9 Y91.481 E52.40909
G1 X79.512 Y91.182 E52.44307
G1 X80.154 Y90.957 E52.47701
G1 X80.819 Y90.808 E52.51101
G1 X81.75 Y90.733 E52.55761
G1 X138.25 Y90.733 E55.37641
G1 X138.93 Y90.773 E55.41039
G1 X139.6 Y90.892 E55.44434
G1 X140.252 Y91.089 E55.47832
G1 X140.876 Y91.361 E55.51228
G1 X141.464 Y91.705 E55.54627
G1 X142.008 Y92.115 E55.58026
G1 X142.499 Y92.586 E55.6142
G1 X142.933 Y93.111 E55.64818
G1 X143.302 Y93.683 E55.68214
G1 X143.601 Y94.295 E55.71612
G1 X143.826 Y94.937 E55.75006
G1 X143.975 Y95.602 E55.78406
G1 X144.05 Y96.533 E55.83066
G1 X144.05 Y123.033 E57.15275
G1 X144.01 Y123.713 E57.18674
G1 X143.891 Y124.383 E57.22069
G1 X143.694 Y125.035 E57.25467
G1 X143.422 Y125.659 E57.28863
G1 X143.078 Y126.247 E57.32261
G1 X142.668 Y126.791 E57.3566
G1 X142.197 Y127.282 E57.39054
G1 X141.672 Y127.716 E57.42453
G1 X141.1 Y128.085 E57.45849
G1 X140.488 Y128.384 E57.49247
G1 X139.846 Y128.609 E57.52641
G1 X139.181 Y128.758 E57.56041
G1 X138.25 Y128.833 E57.60701
G1 X81.75 Y128.833 E60.4258
G1 X81.07 Y128.793 E60.45979
G1 X80.4 Y128.674 E60.49374
G1 X79.748 Y128.477 E60.52772
G1 X79.124 Y128.205 E60.56168
G1 X78.536 Y127.861 E60.59567
G1 X77.992 Y127.451 E60.62965
G1 X77.501 Y126.98 E60.66359
G1 X77.067 Y126.455 E60.69758
G1 X76.698 Y125.883 E60.73154
G1 X76.399 Y125.271 E60.76552
G1 X76.174 Y124.629 E60.79946
G1 X76.025 Y123.964 E60.83346
G1 X75.95 Y123.033 E60.88006
G1 X75.95 Y96.533 E62.20215
G1 X75.99 Y95.853 E62.23613
G1 X76.109 Y95.183 E62.27008
G1 X76.306 Y94.531 E62.30406
G1 X76.578 Y93.907 E62.33802
G1 X76.922 Y93.319 E62.37201
G1 X77.332 Y92.775 E62.406
G1 X77.803 Y92.284 E62.43994
G1 X78.328 Y91.85 E62.47392
M205 X8.18 Y8.18
G0 F2400 X78.195 Y92.468
M205 X3 Y3
G1 F1200 X78.715 Y92.067 E62.50668
G1 X79.279 Y91.731 E62.53944
G1 X79.881 Y91.467 E62.57223
G1 X80.51 Y91.277 E62.60501
G1 X81.157 Y91.166 E62.63776
G1 X81.75 Y91.133 E62.66739
G1 X138.25 Y91.133 E65.48619
G1 X138.906 Y91.173 E65.51898
G1 X139.552 Y91.292 E65.55175
G1 X140.179 Y91.489 E65.58454
G1 X140.777 Y91.761 E65.61732
G1 X141.338 Y92.103 E65.65009
G1 X141.853 Y92.511 E65.68287
G1 X142.315 Y92.978 E65.71565
G1 X142.716 Y93.498 E65.74841
G1 X143.052 Y94.062 E65.78116
G1 X143.316 Y94.664 E65.81396
G1 X143.506 Y95.293 E65.84674
G1 X143.617 Y95.94 E65.87949
G1 X143.65 Y96.533 E65.90912
G1 X143.65 Y123.033 E67.23121
G1 X143.61 Y123.689 E67.264
G1 X143.491 Y124.335 E67.29677
G1 X143.294 Y124.962 E67.32956
G1 X143.022 Y125.56 E67.36233
G1 X142.68 Y126.121 E67.39511
G1 X142.272 Y126.636 E67.42789
G1 X141.805 Y127.098 E67.46067
G1 X141.285 Y127.499 E67.49343
G1 X140.721 Y127.835 E67.52618
G1 X140.119 Y128.099 E67.55897
G1 X139.49 Y128.289 E67.59176
G1 X138.843 Y128.4 E67.62451
G1 X138.25 Y128.433 E67.65414
G1 X81.75 Y128.433 E70.47293
G1 X81.094 Y128.393 E70.50572
G1 X80.448 Y128.274 E70.53849
G1 X79.821 Y128.077 E70.57128
G1 X79.223 Y127.805 E70.60406
G1 X78.662 Y127.463 E70.63684
G1 X78.147 Y127.055 E70.66962
G1 X77.685 Y126.588 E70.70239
G1 X77.284 Y126.068 E70.73515
G1 X76.948 Y125.504 E70.7679
G1 X76.684 Y124.902 E70.8007
G1 X76.494 Y124.273 E70.83348
G1 X76.383 Y123.626 E70.86623
G1 X76.35 Y123.033 E70.89586
G1 X76.35 Y96.533 E72.21795
G1 X76.39 Y95.877 E72.25074
G1 X76.509 Y95.231 E72.28351
G1 X76.706 Y94.604 E72.3163
G1 X76.978 Y94.006 E72.34908
G1 X77.32 Y93.445 E72.38185
G1 X77.728 Y92.93 E72.41463
G1 X78.195 Y92.468 E72.44741
M205 X8.18 Y8.18
G0 F2400 X78.586 Y92.662
M205 X3 Y3
G1 F1200 X79.1 Y92.293 E72.47898
G1 X79.656 Y91.993 E72.51049
G1 X80.245 Y91.765 E72.542
G1 X80.859 Y91.613 E72.57356
G1 X81.75 Y91.533 E72.61819
G1 X138.25 Y91.533 E75.43699
G1 X138.881 Y91.573 E75.46853
G1 X139.502 Y91.692 E75.50008
G1 X140.102 Y91.889 E75.53159
G1 X140.674 Y92.16 E75.56316
G1 X141.206 Y92.5 E75.59466
G1 X141.691 Y92.906 E75.62622
G1 X142.121 Y93.369 E75.65774
G1 X142.49 Y93.883 E75.68931
G1 X142.79 Y94.439 E75.72083
G1 X143.018 Y95.028 E75.75234
G1 X143.17 Y95.642 E75.7839
G1 X143.25 Y96.533 E75.82853
G1 X143.25 Y123.033 E77.15062
G1 X143.21 Y123.664 E77.18216
G1 X143.091 Y124.285 E77.21371
G1 X142.894 Y124.885 E77.24521
G1 X142.623 Y125.457 E77.27679
G1 X142.283 Y125.989 E77.30829
G1 X141.877 Y126.474 E77.33985
G1 X141.414 Y126.904 E77.37137
G1 X140.9 Y127.273 E77.40294
G1 X140.344 Y127.573 E77.43446
G1 X139.755 Y127.801 E77.46597
G1 X139.141 Y127.953 E77.49752
G1 X138.25 Y128.033 E77.54216
G1 X81.75 Y128.033 E80.36095
G1 X81.119 Y127.993 E80.3925
G1 X80.498 Y127.874 E80.42404
G1 X79.898 Y127.677 E80.45555
G1 X79.326 Y127.406 E80.48713
G1 X78.794 Y127.066 E80.51862
G1 X78.309 Y126.66 E80.55018
G1 X77.879 Y126.197 E80.58171
G1 X77.51 Y125.683 E80.61327
G1 X77.21 Y125.127 E80.64479
G1 X76.982 Y124.538 E80.6763
G1 X76.83 Y123.924 E80.70786
G1 X76.75 Y123.033 E80.75249
G1 X76.75 Y96.533 E82.07458
G1 X76.79 Y95.902 E82.10612
G1 X76.909 Y95.281 E82.13767
G1 X77.106 Y94.681 E82.16918
G1 X77.377 Y94.109 E82.20075
G1 X77.717 Y93.577 E82.23225
G1 X78.123 Y93.092 E82.26381
G1 X78.586 Y92.662 E82.29533
M205 X8.18 Y8.18
G0 F2400 X78.975 Y92.864
M205 X3 Y3
G1 F1200 X79.482 Y92.531 E82.3256
G1 X80.028 Y92.267 E82.35585
G1 X80.604 Y92.078 E82.3861
G1 X81.2 Y91.966 E82.41635
G1 X81.75 Y91.933 E82.44384
G1 X138.25 Y91.933 E85.26264
G1 X138.855 Y91.973 E85.29289
G1 X139.449 Y92.092 E85.32311
G1 X140.023 Y92.288 E85.35337
G1 X140.566 Y92.559 E85.38365
G1 X141.069 Y92.898 E85.41391
G1 X141.522 Y93.3 E85.44413
G1 X141.919 Y93.758 E85.47437
G1 X142.252 Y94.265 E85.50463
G1 X142.516 Y94.811 E85.53488
G1 X142.705 Y95.387 E85.56513
G1 X142.817 Y95.983 E85.59538
G1 X142.85 Y96.533 E85.62287
G1 X142.85 Y123.033 E86.94496
G1 X142.81 Y123.638 E86.97521
G1 X142.691 Y124.232 E87.00544
